( Made using CamBam - http://www.cambam.info )
( corner cube slice 4/9/2019 5:28:07 PM )
( T0 : 12.0 )
G21 G90 G64 G40
G0 Z5.0
( T0 : 12.0 )
T0 M6
( Profile1 )
G17
G0 X0.0 Y-51.5455
G0 Z1.0
G1 Z-10.0
G1 X36.9154
G3 X44.2196 Y-57.1508 I5.9948 J0.2501
G1 X44.6574 Y-57.0529
G3 X45.0219 Y-56.9593 I-1.3094 J5.8554
G1 X45.6797 Y-56.7682
G3 X46.038 Y-56.6518 I-1.6739 J5.7618
G1 X46.6825 Y-56.4198
G3 X47.0338 Y-56.2807 I-2.0322 J5.6454
G1 X47.6624 Y-56.0086
G3 X48.002 Y-55.8487 I-2.3835 J5.5063
G1 X48.6124 Y-55.5378
G3 X48.9436 Y-55.3558 I-2.7231 J5.3464
G1 X49.5332 Y-55.0071
G3 X49.852 Y-54.8047 I-3.0543 J5.1644
G1 X50.4185 Y-54.4196
G3 X50.7229 Y-54.1985 I-3.3731 J4.962
G1 X51.2641 Y-53.7787
G3 X51.5542 Y-53.5387 I-3.6775 J4.7409
G1 X52.0681 Y-53.0857
G3 X52.3431 Y-52.8274 I-3.9676 J4.5009
G1 X52.8274 Y-52.3431
G3 X53.0857 Y-52.0681 I-4.2426 J4.2426
G1 X53.5387 Y-51.5542
G3 X53.7787 Y-51.2641 I-4.5009 J3.9676
G1 X54.1985 Y-50.7229
G3 X54.4196 Y-50.4185 I-4.7409 J3.6775
G1 X54.8047 Y-49.852
G3 X55.0071 Y-49.5332 I-4.962 J3.3731
G1 X55.3558 Y-48.9436
G3 X55.5378 Y-48.6124 I-5.1644 J3.0543
G1 X55.8487 Y-48.002
G3 X56.0086 Y-47.6624 I-5.3464 J2.7231
G1 X56.2807 Y-47.0338
G3 X56.4198 Y-46.6825 I-5.5063 J2.3835
G1 X56.6518 Y-46.038
G3 X56.7682 Y-45.6797 I-5.6454 J2.0322
G1 X56.9593 Y-45.0219
G3 X57.0531 Y-44.6566 I-5.7618 J1.6739
G1 X57.2025 Y-43.9881
G3 X57.273 Y-43.6186 I-5.8556 J1.3086
G1 X57.3802 Y-42.9421
G3 X57.4274 Y-42.5679 I-5.9261 J0.9391
G1 X57.4919 Y-41.8859
G3 X57.5156 Y-41.5093 I-5.9733 J0.5649
G1 X57.5371 Y-40.8247
G3 X57.5401 Y-40.6364 I-5.997 J0.1883
G1 Y40.6364
G3 X57.5371 Y40.8247 I-6.0 J0.0
G1 X57.5156 Y41.5093
G3 X57.4919 Y41.8859 I-5.997 J-0.1883
G1 X57.4274 Y42.5679
G3 X57.3802 Y42.9421 I-5.9733 J-0.5649
G1 X57.273 Y43.6186
G3 X57.2025 Y43.9881 I-5.9261 J-0.9391
G1 X57.0531 Y44.6566
G3 X56.9593 Y45.0219 I-5.8556 J-1.3086
G1 X56.7682 Y45.6797
G3 X56.6518 Y46.038 I-5.7618 J-1.6739
G1 X56.4198 Y46.6825
G3 X56.2807 Y47.0338 I-5.6454 J-2.0322
G1 X56.0086 Y47.6624
G3 X55.8487 Y48.002 I-5.5063 J-2.3835
G1 X55.5378 Y48.6124
G3 X55.3558 Y48.9436 I-5.3464 J-2.7231
G1 X55.0071 Y49.5332
G3 X54.8047 Y49.852 I-5.1644 J-3.0543
G1 X54.4196 Y50.4185
G3 X54.1985 Y50.7229 I-4.962 J-3.3731
G1 X53.7787 Y51.2641
G3 X53.5387 Y51.5542 I-4.7409 J-3.6775
G1 X53.0857 Y52.0681
G3 X52.8274 Y52.3431 I-4.5009 J-3.9676
G1 X52.3431 Y52.8274
G3 X52.0681 Y53.0857 I-4.2426 J-4.2426
G1 X51.5542 Y53.5387
G3 X51.2641 Y53.7787 I-3.9676 J-4.5009
G1 X50.7229 Y54.1985
G3 X50.4185 Y54.4196 I-3.6775 J-4.7409
G1 X49.852 Y54.8047
G3 X49.5332 Y55.0071 I-3.3731 J-4.962
G1 X48.9436 Y55.3558
G3 X48.6124 Y55.5378 I-3.0543 J-5.1644
G1 X48.002 Y55.8487
G3 X47.6624 Y56.0086 I-2.7231 J-5.3464
G1 X47.0338 Y56.2807
G3 X46.6825 Y56.4198 I-2.3835 J-5.5063
G1 X46.038 Y56.6518
G3 X45.6797 Y56.7682 I-2.0322 J-5.6454
G1 X45.0219 Y56.9593
G3 X44.6566 Y57.0531 I-1.6739 J-5.7618
G1 X43.9881 Y57.2025
G3 X43.6186 Y57.273 I-1.3086 J-5.8556
G1 X42.9421 Y57.3802
G3 X42.5679 Y57.4274 I-0.9391 J-5.9261
G1 X41.8859 Y57.4919
G3 X41.5093 Y57.5156 I-0.5649 J-5.9733
G1 X40.8247 Y57.5371
G3 X40.6364 Y57.5401 I-0.1883 J-5.997
G1 X-40.6364
G3 X-40.8247 Y57.5371 I0.0 J-6.0
G1 X-41.5093 Y57.5156
G3 X-41.8859 Y57.4919 I0.1883 J-5.997
G1 X-42.5679 Y57.4274
G3 X-42.9421 Y57.3802 I0.5649 J-5.9733
G1 X-43.6186 Y57.273
G3 X-43.9881 Y57.2025 I0.9391 J-5.9261
G1 X-44.6566 Y57.0531
G3 X-45.0219 Y56.9593 I1.3086 J-5.8556
G1 X-45.6797 Y56.7682
G3 X-46.038 Y56.6518 I1.6739 J-5.7618
G1 X-46.6825 Y56.4198
G3 X-47.0338 Y56.2807 I2.0322 J-5.6454
G1 X-47.6624 Y56.0086
G3 X-48.002 Y55.8487 I2.3835 J-5.5063
G1 X-48.6124 Y55.5378
G3 X-48.9436 Y55.3558 I2.7231 J-5.3464
G1 X-49.5332 Y55.0071
G3 X-49.852 Y54.8047 I3.0543 J-5.1644
G1 X-50.4185 Y54.4196
G3 X-50.7229 Y54.1985 I3.3731 J-4.962
G1 X-51.2641 Y53.7787
G3 X-51.5542 Y53.5387 I3.6775 J-4.7409
G1 X-52.0681 Y53.0857
G3 X-52.3431 Y52.8274 I3.9676 J-4.5009
G1 X-52.8274 Y52.3431
G3 X-53.0857 Y52.0681 I4.2426 J-4.2426
G1 X-53.5387 Y51.5542
G3 X-53.7787 Y51.2641 I4.5009 J-3.9676
G1 X-54.1985 Y50.7229
G3 X-54.4196 Y50.4185 I4.7409 J-3.6775
G1 X-54.8047 Y49.852
G3 X-55.0071 Y49.5332 I4.962 J-3.3731
G1 X-55.3558 Y48.9436
G3 X-55.5378 Y48.6124 I5.1644 J-3.0543
G1 X-55.8487 Y48.002
G3 X-56.0086 Y47.6624 I5.3464 J-2.7231
G1 X-56.2807 Y47.0338
G3 X-56.4198 Y46.6825 I5.5063 J-2.3835
G1 X-56.6518 Y46.038
G3 X-56.7682 Y45.6797 I5.6454 J-2.0322
G1 X-56.9593 Y45.0219
G3 X-57.0529 Y44.6574 I5.7618 J-1.6739
G1 X-57.1508 Y44.2196
G3 X-51.5455 Y36.9154 I5.8554 J-1.3094
G1 Y-36.9154
G3 X-57.1508 Y-44.2196 I0.2501 J-5.9948
G1 X-57.0529 Y-44.6574
G3 X-56.9593 Y-45.0219 I5.8554 J1.3094
G1 X-56.7682 Y-45.6797
G3 X-56.6518 Y-46.038 I5.7618 J1.6739
G1 X-56.4198 Y-46.6825
G3 X-56.2807 Y-47.0338 I5.6454 J2.0322
G1 X-56.0086 Y-47.6624
G3 X-55.8487 Y-48.002 I5.5063 J2.3835
G1 X-55.5378 Y-48.6124
G3 X-55.3558 Y-48.9436 I5.3464 J2.7231
G1 X-55.0071 Y-49.5332
G3 X-54.8047 Y-49.852 I5.1644 J3.0543
G1 X-54.4196 Y-50.4185
G3 X-54.1985 Y-50.7229 I4.962 J3.3731
G1 X-53.7787 Y-51.2641
G3 X-53.5387 Y-51.5542 I4.7409 J3.6775
G1 X-53.0857 Y-52.0681
G3 X-52.8274 Y-52.3431 I4.5009 J3.9676
G1 X-52.3431 Y-52.8274
G3 X-52.0681 Y-53.0857 I4.2426 J4.2426
G1 X-51.5542 Y-53.5387
G3 X-51.2641 Y-53.7787 I3.9676 J4.5009
G1 X-50.7229 Y-54.1985
G3 X-50.4185 Y-54.4196 I3.6775 J4.7409
G1 X-49.852 Y-54.8047
G3 X-49.5332 Y-55.0071 I3.3731 J4.962
G1 X-48.9436 Y-55.3558
G3 X-48.6124 Y-55.5378 I3.0543 J5.1644
G1 X-48.002 Y-55.8487
G3 X-47.6624 Y-56.0086 I2.7231 J5.3464
G1 X-47.0338 Y-56.2807
G3 X-46.6825 Y-56.4198 I2.3835 J5.5063
G1 X-46.038 Y-56.6518
G3 X-45.6797 Y-56.7682 I2.0322 J5.6454
G1 X-45.0219 Y-56.9593
G3 X-44.6574 Y-57.0529 I1.6739 J5.7618
G1 X-44.2196 Y-57.1508
G3 X-36.9154 Y-51.5455 I1.3094 J5.8554
G1 X0.0
G1 Z-20.0
G1 X36.9154
G3 X44.2196 Y-57.1508 I5.9948 J0.2501
G1 X44.6574 Y-57.0529
G3 X45.0219 Y-56.9593 I-1.3094 J5.8554
G1 X45.6797 Y-56.7682
G3 X46.038 Y-56.6518 I-1.6739 J5.7618
G1 X46.6825 Y-56.4198
G3 X47.0338 Y-56.2807 I-2.0322 J5.6454
G1 X47.6624 Y-56.0086
G3 X48.002 Y-55.8487 I-2.3835 J5.5063
G1 X48.6124 Y-55.5378
G3 X48.9436 Y-55.3558 I-2.7231 J5.3464
G1 X49.5332 Y-55.0071
G3 X49.852 Y-54.8047 I-3.0543 J5.1644
G1 X50.4185 Y-54.4196
G3 X50.7229 Y-54.1985 I-3.3731 J4.962
G1 X51.2641 Y-53.7787
G3 X51.5542 Y-53.5387 I-3.6775 J4.7409
G1 X52.0681 Y-53.0857
G3 X52.3431 Y-52.8274 I-3.9676 J4.5009
G1 X52.8274 Y-52.3431
G3 X53.0857 Y-52.0681 I-4.2426 J4.2426
G1 X53.5387 Y-51.5542
G3 X53.7787 Y-51.2641 I-4.5009 J3.9676
G1 X54.1985 Y-50.7229
G3 X54.4196 Y-50.4185 I-4.7409 J3.6775
G1 X54.8047 Y-49.852
G3 X55.0071 Y-49.5332 I-4.962 J3.3731
G1 X55.3558 Y-48.9436
G3 X55.5378 Y-48.6124 I-5.1644 J3.0543
G1 X55.8487 Y-48.002
G3 X56.0086 Y-47.6624 I-5.3464 J2.7231
G1 X56.2807 Y-47.0338
G3 X56.4198 Y-46.6825 I-5.5063 J2.3835
G1 X56.6518 Y-46.038
G3 X56.7682 Y-45.6797 I-5.6454 J2.0322
G1 X56.9593 Y-45.0219
G3 X57.0531 Y-44.6566 I-5.7618 J1.6739
G1 X57.2025 Y-43.9881
G3 X57.273 Y-43.6186 I-5.8556 J1.3086
G1 X57.3802 Y-42.9421
G3 X57.4274 Y-42.5679 I-5.9261 J0.9391
G1 X57.4919 Y-41.8859
G3 X57.5156 Y-41.5093 I-5.9733 J0.5649
G1 X57.5371 Y-40.8247
G3 X57.5401 Y-40.6364 I-5.997 J0.1883
G1 Y40.6364
G3 X57.5371 Y40.8247 I-6.0 J0.0
G1 X57.5156 Y41.5093
G3 X57.4919 Y41.8859 I-5.997 J-0.1883
G1 X57.4274 Y42.5679
G3 X57.3802 Y42.9421 I-5.9733 J-0.5649
G1 X57.273 Y43.6186
G3 X57.2025 Y43.9881 I-5.9261 J-0.9391
G1 X57.0531 Y44.6566
G3 X56.9593 Y45.0219 I-5.8556 J-1.3086
G1 X56.7682 Y45.6797
G3 X56.6518 Y46.038 I-5.7618 J-1.6739
G1 X56.4198 Y46.6825
G3 X56.2807 Y47.0338 I-5.6454 J-2.0322
G1 X56.0086 Y47.6624
G3 X55.8487 Y48.002 I-5.5063 J-2.3835
G1 X55.5378 Y48.6124
G3 X55.3558 Y48.9436 I-5.3464 J-2.7231
G1 X55.0071 Y49.5332
G3 X54.8047 Y49.852 I-5.1644 J-3.0543
G1 X54.4196 Y50.4185
G3 X54.1985 Y50.7229 I-4.962 J-3.3731
G1 X53.7787 Y51.2641
G3 X53.5387 Y51.5542 I-4.7409 J-3.6775
G1 X53.0857 Y52.0681
G3 X52.8274 Y52.3431 I-4.5009 J-3.9676
G1 X52.3431 Y52.8274
G3 X52.0681 Y53.0857 I-4.2426 J-4.2426
G1 X51.5542 Y53.5387
G3 X51.2641 Y53.7787 I-3.9676 J-4.5009
G1 X50.7229 Y54.1985
G3 X50.4185 Y54.4196 I-3.6775 J-4.7409
G1 X49.852 Y54.8047
G3 X49.5332 Y55.0071 I-3.3731 J-4.962
G1 X48.9436 Y55.3558
G3 X48.6124 Y55.5378 I-3.0543 J-5.1644
G1 X48.002 Y55.8487
G3 X47.6624 Y56.0086 I-2.7231 J-5.3464
G1 X47.0338 Y56.2807
G3 X46.6825 Y56.4198 I-2.3835 J-5.5063
G1 X46.038 Y56.6518
G3 X45.6797 Y56.7682 I-2.0322 J-5.6454
G1 X45.0219 Y56.9593
G3 X44.6566 Y57.0531 I-1.6739 J-5.7618
G1 X43.9881 Y57.2025
G3 X43.6186 Y57.273 I-1.3086 J-5.8556
G1 X42.9421 Y57.3802
G3 X42.5679 Y57.4274 I-0.9391 J-5.9261
G1 X41.8859 Y57.4919
G3 X41.5093 Y57.5156 I-0.5649 J-5.9733
G1 X40.8247 Y57.5371
G3 X40.6364 Y57.5401 I-0.1883 J-5.997
G1 X-40.6364
G3 X-40.8247 Y57.5371 I0.0 J-6.0
G1 X-41.5093 Y57.5156
G3 X-41.8859 Y57.4919 I0.1883 J-5.997
G1 X-42.5679 Y57.4274
G3 X-42.9421 Y57.3802 I0.5649 J-5.9733
G1 X-43.6186 Y57.273
G3 X-43.9881 Y57.2025 I0.9391 J-5.9261
G1 X-44.6566 Y57.0531
G3 X-45.0219 Y56.9593 I1.3086 J-5.8556
G1 X-45.6797 Y56.7682
G3 X-46.038 Y56.6518 I1.6739 J-5.7618
G1 X-46.6825 Y56.4198
G3 X-47.0338 Y56.2807 I2.0322 J-5.6454
G1 X-47.6624 Y56.0086
G3 X-48.002 Y55.8487 I2.3835 J-5.5063
G1 X-48.6124 Y55.5378
G3 X-48.9436 Y55.3558 I2.7231 J-5.3464
G1 X-49.5332 Y55.0071
G3 X-49.852 Y54.8047 I3.0543 J-5.1644
G1 X-50.4185 Y54.4196
G3 X-50.7229 Y54.1985 I3.3731 J-4.962
G1 X-51.2641 Y53.7787
G3 X-51.5542 Y53.5387 I3.6775 J-4.7409
G1 X-52.0681 Y53.0857
G3 X-52.3431 Y52.8274 I3.9676 J-4.5009
G1 X-52.8274 Y52.3431
G3 X-53.0857 Y52.0681 I4.2426 J-4.2426
G1 X-53.5387 Y51.5542
G3 X-53.7787 Y51.2641 I4.5009 J-3.9676
G1 X-54.1985 Y50.7229
G3 X-54.4196 Y50.4185 I4.7409 J-3.6775
G1 X-54.8047 Y49.852
G3 X-55.0071 Y49.5332 I4.962 J-3.3731
G1 X-55.3558 Y48.9436
G3 X-55.5378 Y48.6124 I5.1644 J-3.0543
G1 X-55.8487 Y48.002
G3 X-56.0086 Y47.6624 I5.3464 J-2.7231
G1 X-56.2807 Y47.0338
G3 X-56.4198 Y46.6825 I5.5063 J-2.3835
G1 X-56.6518 Y46.038
G3 X-56.7682 Y45.6797 I5.6454 J-2.0322
G1 X-56.9593 Y45.0219
G3 X-57.0529 Y44.6574 I5.7618 J-1.6739
G1 X-57.1508 Y44.2196
G3 X-51.5455 Y36.9154 I5.8554 J-1.3094
G1 Y-36.9154
G3 X-57.1508 Y-44.2196 I0.2501 J-5.9948
G1 X-57.0529 Y-44.6574
G3 X-56.9593 Y-45.0219 I5.8554 J1.3094
G1 X-56.7682 Y-45.6797
G3 X-56.6518 Y-46.038 I5.7618 J1.6739
G1 X-56.4198 Y-46.6825
G3 X-56.2807 Y-47.0338 I5.6454 J2.0322
G1 X-56.0086 Y-47.6624
G3 X-55.8487 Y-48.002 I5.5063 J2.3835
G1 X-55.5378 Y-48.6124
G3 X-55.3558 Y-48.9436 I5.3464 J2.7231
G1 X-55.0071 Y-49.5332
G3 X-54.8047 Y-49.852 I5.1644 J3.0543
G1 X-54.4196 Y-50.4185
G3 X-54.1985 Y-50.7229 I4.962 J3.3731
G1 X-53.7787 Y-51.2641
G3 X-53.5387 Y-51.5542 I4.7409 J3.6775
G1 X-53.0857 Y-52.0681
G3 X-52.8274 Y-52.3431 I4.5009 J3.9676
G1 X-52.3431 Y-52.8274
G3 X-52.0681 Y-53.0857 I4.2426 J4.2426
G1 X-51.5542 Y-53.5387
G3 X-51.2641 Y-53.7787 I3.9676 J4.5009
G1 X-50.7229 Y-54.1985
G3 X-50.4185 Y-54.4196 I3.6775 J4.7409
G1 X-49.852 Y-54.8047
G3 X-49.5332 Y-55.0071 I3.3731 J4.962
G1 X-48.9436 Y-55.3558
G3 X-48.6124 Y-55.5378 I3.0543 J5.1644
G1 X-48.002 Y-55.8487
G3 X-47.6624 Y-56.0086 I2.7231 J5.3464
G1 X-47.0338 Y-56.2807
G3 X-46.6825 Y-56.4198 I2.3835 J5.5063
G1 X-46.038 Y-56.6518
G3 X-45.6797 Y-56.7682 I2.0322 J5.6454
G1 X-45.0219 Y-56.9593
G3 X-44.6574 Y-57.0529 I1.6739 J5.7618
G1 X-44.2196 Y-57.1508
G3 X-36.9154 Y-51.5455 I1.3094 J5.8554
G1 X0.0
G1 Z-30.0
G1 X36.9154
G3 X44.2196 Y-57.1508 I5.9948 J0.2501
G1 X44.6574 Y-57.0529
G3 X45.0219 Y-56.9593 I-1.3094 J5.8554
G1 X45.6797 Y-56.7682
G3 X46.038 Y-56.6518 I-1.6739 J5.7618
G1 X46.6825 Y-56.4198
G3 X47.0338 Y-56.2807 I-2.0322 J5.6454
G1 X47.6624 Y-56.0086
G3 X48.002 Y-55.8487 I-2.3835 J5.5063
G1 X48.6124 Y-55.5378
G3 X48.9436 Y-55.3558 I-2.7231 J5.3464
G1 X49.5332 Y-55.0071
G3 X49.852 Y-54.8047 I-3.0543 J5.1644
G1 X50.4185 Y-54.4196
G3 X50.7229 Y-54.1985 I-3.3731 J4.962
G1 X51.2641 Y-53.7787
G3 X51.5542 Y-53.5387 I-3.6775 J4.7409
G1 X52.0681 Y-53.0857
G3 X52.3431 Y-52.8274 I-3.9676 J4.5009
G1 X52.8274 Y-52.3431
G3 X53.0857 Y-52.0681 I-4.2426 J4.2426
G1 X53.5387 Y-51.5542
G3 X53.7787 Y-51.2641 I-4.5009 J3.9676
G1 X54.1985 Y-50.7229
G3 X54.4196 Y-50.4185 I-4.7409 J3.6775
G1 X54.8047 Y-49.852
G3 X55.0071 Y-49.5332 I-4.962 J3.3731
G1 X55.3558 Y-48.9436
G3 X55.5378 Y-48.6124 I-5.1644 J3.0543
G1 X55.8487 Y-48.002
G3 X56.0086 Y-47.6624 I-5.3464 J2.7231
G1 X56.2807 Y-47.0338
G3 X56.4198 Y-46.6825 I-5.5063 J2.3835
G1 X56.6518 Y-46.038
G3 X56.7682 Y-45.6797 I-5.6454 J2.0322
G1 X56.9593 Y-45.0219
G3 X57.0531 Y-44.6566 I-5.7618 J1.6739
G1 X57.2025 Y-43.9881
G3 X57.273 Y-43.6186 I-5.8556 J1.3086
G1 X57.3802 Y-42.9421
G3 X57.4274 Y-42.5679 I-5.9261 J0.9391
G1 X57.4919 Y-41.8859
G3 X57.5156 Y-41.5093 I-5.9733 J0.5649
G1 X57.5371 Y-40.8247
G3 X57.5401 Y-40.6364 I-5.997 J0.1883
G1 Y40.6364
G3 X57.5371 Y40.8247 I-6.0 J0.0
G1 X57.5156 Y41.5093
G3 X57.4919 Y41.8859 I-5.997 J-0.1883
G1 X57.4274 Y42.5679
G3 X57.3802 Y42.9421 I-5.9733 J-0.5649
G1 X57.273 Y43.6186
G3 X57.2025 Y43.9881 I-5.9261 J-0.9391
G1 X57.0531 Y44.6566
G3 X56.9593 Y45.0219 I-5.8556 J-1.3086
G1 X56.7682 Y45.6797
G3 X56.6518 Y46.038 I-5.7618 J-1.6739
G1 X56.4198 Y46.6825
G3 X56.2807 Y47.0338 I-5.6454 J-2.0322
G1 X56.0086 Y47.6624
G3 X55.8487 Y48.002 I-5.5063 J-2.3835
G1 X55.5378 Y48.6124
G3 X55.3558 Y48.9436 I-5.3464 J-2.7231
G1 X55.0071 Y49.5332
G3 X54.8047 Y49.852 I-5.1644 J-3.0543
G1 X54.4196 Y50.4185
G3 X54.1985 Y50.7229 I-4.962 J-3.3731
G1 X53.7787 Y51.2641
G3 X53.5387 Y51.5542 I-4.7409 J-3.6775
G1 X53.0857 Y52.0681
G3 X52.8274 Y52.3431 I-4.5009 J-3.9676
G1 X52.3431 Y52.8274
G3 X52.0681 Y53.0857 I-4.2426 J-4.2426
G1 X51.5542 Y53.5387
G3 X51.2641 Y53.7787 I-3.9676 J-4.5009
G1 X50.7229 Y54.1985
G3 X50.4185 Y54.4196 I-3.6775 J-4.7409
G1 X49.852 Y54.8047
G3 X49.5332 Y55.0071 I-3.3731 J-4.962
G1 X48.9436 Y55.3558
G3 X48.6124 Y55.5378 I-3.0543 J-5.1644
G1 X48.002 Y55.8487
G3 X47.6624 Y56.0086 I-2.7231 J-5.3464
G1 X47.0338 Y56.2807
G3 X46.6825 Y56.4198 I-2.3835 J-5.5063
G1 X46.038 Y56.6518
G3 X45.6797 Y56.7682 I-2.0322 J-5.6454
G1 X45.0219 Y56.9593
G3 X44.6566 Y57.0531 I-1.6739 J-5.7618
G1 X43.9881 Y57.2025
G3 X43.6186 Y57.273 I-1.3086 J-5.8556
G1 X42.9421 Y57.3802
G3 X42.5679 Y57.4274 I-0.9391 J-5.9261
G1 X41.8859 Y57.4919
G3 X41.5093 Y57.5156 I-0.5649 J-5.9733
G1 X40.8247 Y57.5371
G3 X40.6364 Y57.5401 I-0.1883 J-5.997
G1 X-40.6364
G3 X-40.8247 Y57.5371 I0.0 J-6.0
G1 X-41.5093 Y57.5156
G3 X-41.8859 Y57.4919 I0.1883 J-5.997
G1 X-42.5679 Y57.4274
G3 X-42.9421 Y57.3802 I0.5649 J-5.9733
G1 X-43.6186 Y57.273
G3 X-43.9881 Y57.2025 I0.9391 J-5.9261
G1 X-44.6566 Y57.0531
G3 X-45.0219 Y56.9593 I1.3086 J-5.8556
G1 X-45.6797 Y56.7682
G3 X-46.038 Y56.6518 I1.6739 J-5.7618
G1 X-46.6825 Y56.4198
G3 X-47.0338 Y56.2807 I2.0322 J-5.6454
G1 X-47.6624 Y56.0086
G3 X-48.002 Y55.8487 I2.3835 J-5.5063
G1 X-48.6124 Y55.5378
G3 X-48.9436 Y55.3558 I2.7231 J-5.3464
G1 X-49.5332 Y55.0071
G3 X-49.852 Y54.8047 I3.0543 J-5.1644
G1 X-50.4185 Y54.4196
G3 X-50.7229 Y54.1985 I3.3731 J-4.962
G1 X-51.2641 Y53.7787
G3 X-51.5542 Y53.5387 I3.6775 J-4.7409
G1 X-52.0681 Y53.0857
G3 X-52.3431 Y52.8274 I3.9676 J-4.5009
G1 X-52.8274 Y52.3431
G3 X-53.0857 Y52.0681 I4.2426 J-4.2426
G1 X-53.5387 Y51.5542
G3 X-53.7787 Y51.2641 I4.5009 J-3.9676
G1 X-54.1985 Y50.7229
G3 X-54.4196 Y50.4185 I4.7409 J-3.6775
G1 X-54.8047 Y49.852
G3 X-55.0071 Y49.5332 I4.962 J-3.3731
G1 X-55.3558 Y48.9436
G3 X-55.5378 Y48.6124 I5.1644 J-3.0543
G1 X-55.8487 Y48.002
G3 X-56.0086 Y47.6624 I5.3464 J-2.7231
G1 X-56.2807 Y47.0338
G3 X-56.4198 Y46.6825 I5.5063 J-2.3835
G1 X-56.6518 Y46.038
G3 X-56.7682 Y45.6797 I5.6454 J-2.0322
G1 X-56.9593 Y45.0219
G3 X-57.0529 Y44.6574 I5.7618 J-1.6739
G1 X-57.1508 Y44.2196
G3 X-51.5455 Y36.9154 I5.8554 J-1.3094
G1 Y-36.9154
G3 X-57.1508 Y-44.2196 I0.2501 J-5.9948
G1 X-57.0529 Y-44.6574
G3 X-56.9593 Y-45.0219 I5.8554 J1.3094
G1 X-56.7682 Y-45.6797
G3 X-56.6518 Y-46.038 I5.7618 J1.6739
G1 X-56.4198 Y-46.6825
G3 X-56.2807 Y-47.0338 I5.6454 J2.0322
G1 X-56.0086 Y-47.6624
G3 X-55.8487 Y-48.002 I5.5063 J2.3835
G1 X-55.5378 Y-48.6124
G3 X-55.3558 Y-48.9436 I5.3464 J2.7231
G1 X-55.0071 Y-49.5332
G3 X-54.8047 Y-49.852 I5.1644 J3.0543
G1 X-54.4196 Y-50.4185
G3 X-54.1985 Y-50.7229 I4.962 J3.3731
G1 X-53.7787 Y-51.2641
G3 X-53.5387 Y-51.5542 I4.7409 J3.6775
G1 X-53.0857 Y-52.0681
G3 X-52.8274 Y-52.3431 I4.5009 J3.9676
G1 X-52.3431 Y-52.8274
G3 X-52.0681 Y-53.0857 I4.2426 J4.2426
G1 X-51.5542 Y-53.5387
G3 X-51.2641 Y-53.7787 I3.9676 J4.5009
G1 X-50.7229 Y-54.1985
G3 X-50.4185 Y-54.4196 I3.6775 J4.7409
G1 X-49.852 Y-54.8047
G3 X-49.5332 Y-55.0071 I3.3731 J4.962
G1 X-48.9436 Y-55.3558
G3 X-48.6124 Y-55.5378 I3.0543 J5.1644
G1 X-48.002 Y-55.8487
G3 X-47.6624 Y-56.0086 I2.7231 J5.3464
G1 X-47.0338 Y-56.2807
G3 X-46.6825 Y-56.4198 I2.3835 J5.5063
G1 X-46.038 Y-56.6518
G3 X-45.6797 Y-56.7682 I2.0322 J5.6454
G1 X-45.0219 Y-56.9593
G3 X-44.6574 Y-57.0529 I1.6739 J5.7618
G1 X-44.2196 Y-57.1508
G3 X-36.9154 Y-51.5455 I1.3094 J5.8554
G1 X0.0
G1 Z-40.0
G1 X36.9154
G3 X44.2196 Y-57.1508 I5.9948 J0.2501
G1 X44.6574 Y-57.0529
G3 X45.0219 Y-56.9593 I-1.3094 J5.8554
G1 X45.6797 Y-56.7682
G3 X46.038 Y-56.6518 I-1.6739 J5.7618
G1 X46.6825 Y-56.4198
G3 X47.0338 Y-56.2807 I-2.0322 J5.6454
G1 X47.6624 Y-56.0086
G3 X48.002 Y-55.8487 I-2.3835 J5.5063
G1 X48.6124 Y-55.5378
G3 X48.9436 Y-55.3558 I-2.7231 J5.3464
G1 X49.5332 Y-55.0071
G3 X49.852 Y-54.8047 I-3.0543 J5.1644
G1 X50.4185 Y-54.4196
G3 X50.7229 Y-54.1985 I-3.3731 J4.962
G1 X51.2641 Y-53.7787
G3 X51.5542 Y-53.5387 I-3.6775 J4.7409
G1 X52.0681 Y-53.0857
G3 X52.3431 Y-52.8274 I-3.9676 J4.5009
G1 X52.8274 Y-52.3431
G3 X53.0857 Y-52.0681 I-4.2426 J4.2426
G1 X53.5387 Y-51.5542
G3 X53.7787 Y-51.2641 I-4.5009 J3.9676
G1 X54.1985 Y-50.7229
G3 X54.4196 Y-50.4185 I-4.7409 J3.6775
G1 X54.8047 Y-49.852
G3 X55.0071 Y-49.5332 I-4.962 J3.3731
G1 X55.3558 Y-48.9436
G3 X55.5378 Y-48.6124 I-5.1644 J3.0543
G1 X55.8487 Y-48.002
G3 X56.0086 Y-47.6624 I-5.3464 J2.7231
G1 X56.2807 Y-47.0338
G3 X56.4198 Y-46.6825 I-5.5063 J2.3835
G1 X56.6518 Y-46.038
G3 X56.7682 Y-45.6797 I-5.6454 J2.0322
G1 X56.9593 Y-45.0219
G3 X57.0531 Y-44.6566 I-5.7618 J1.6739
G1 X57.2025 Y-43.9881
G3 X57.273 Y-43.6186 I-5.8556 J1.3086
G1 X57.3802 Y-42.9421
G3 X57.4274 Y-42.5679 I-5.9261 J0.9391
G1 X57.4919 Y-41.8859
G3 X57.5156 Y-41.5093 I-5.9733 J0.5649
G1 X57.5371 Y-40.8247
G3 X57.5401 Y-40.6364 I-5.997 J0.1883
G1 Y40.6364
G3 X57.5371 Y40.8247 I-6.0 J0.0
G1 X57.5156 Y41.5093
G3 X57.4919 Y41.8859 I-5.997 J-0.1883
G1 X57.4274 Y42.5679
G3 X57.3802 Y42.9421 I-5.9733 J-0.5649
G1 X57.273 Y43.6186
G3 X57.2025 Y43.9881 I-5.9261 J-0.9391
G1 X57.0531 Y44.6566
G3 X56.9593 Y45.0219 I-5.8556 J-1.3086
G1 X56.7682 Y45.6797
G3 X56.6518 Y46.038 I-5.7618 J-1.6739
G1 X56.4198 Y46.6825
G3 X56.2807 Y47.0338 I-5.6454 J-2.0322
G1 X56.0086 Y47.6624
G3 X55.8487 Y48.002 I-5.5063 J-2.3835
G1 X55.5378 Y48.6124
G3 X55.3558 Y48.9436 I-5.3464 J-2.7231
G1 X55.0071 Y49.5332
G3 X54.8047 Y49.852 I-5.1644 J-3.0543
G1 X54.4196 Y50.4185
G3 X54.1985 Y50.7229 I-4.962 J-3.3731
G1 X53.7787 Y51.2641
G3 X53.5387 Y51.5542 I-4.7409 J-3.6775
G1 X53.0857 Y52.0681
G3 X52.8274 Y52.3431 I-4.5009 J-3.9676
G1 X52.3431 Y52.8274
G3 X52.0681 Y53.0857 I-4.2426 J-4.2426
G1 X51.5542 Y53.5387
G3 X51.2641 Y53.7787 I-3.9676 J-4.5009
G1 X50.7229 Y54.1985
G3 X50.4185 Y54.4196 I-3.6775 J-4.7409
G1 X49.852 Y54.8047
G3 X49.5332 Y55.0071 I-3.3731 J-4.962
G1 X48.9436 Y55.3558
G3 X48.6124 Y55.5378 I-3.0543 J-5.1644
G1 X48.002 Y55.8487
G3 X47.6624 Y56.0086 I-2.7231 J-5.3464
G1 X47.0338 Y56.2807
G3 X46.6825 Y56.4198 I-2.3835 J-5.5063
G1 X46.038 Y56.6518
G3 X45.6797 Y56.7682 I-2.0322 J-5.6454
G1 X45.0219 Y56.9593
G3 X44.6566 Y57.0531 I-1.6739 J-5.7618
G1 X43.9881 Y57.2025
G3 X43.6186 Y57.273 I-1.3086 J-5.8556
G1 X42.9421 Y57.3802
G3 X42.5679 Y57.4274 I-0.9391 J-5.9261
G1 X41.8859 Y57.4919
G3 X41.5093 Y57.5156 I-0.5649 J-5.9733
G1 X40.8247 Y57.5371
G3 X40.6364 Y57.5401 I-0.1883 J-5.997
G1 X-40.6364
G3 X-40.8247 Y57.5371 I0.0 J-6.0
G1 X-41.5093 Y57.5156
G3 X-41.8859 Y57.4919 I0.1883 J-5.997
G1 X-42.5679 Y57.4274
G3 X-42.9421 Y57.3802 I0.5649 J-5.9733
G1 X-43.6186 Y57.273
G3 X-43.9881 Y57.2025 I0.9391 J-5.9261
G1 X-44.6566 Y57.0531
G3 X-45.0219 Y56.9593 I1.3086 J-5.8556
G1 X-45.6797 Y56.7682
G3 X-46.038 Y56.6518 I1.6739 J-5.7618
G1 X-46.6825 Y56.4198
G3 X-47.0338 Y56.2807 I2.0322 J-5.6454
G1 X-47.6624 Y56.0086
G3 X-48.002 Y55.8487 I2.3835 J-5.5063
G1 X-48.6124 Y55.5378
G3 X-48.9436 Y55.3558 I2.7231 J-5.3464
G1 X-49.5332 Y55.0071
G3 X-49.852 Y54.8047 I3.0543 J-5.1644
G1 X-50.4185 Y54.4196
G3 X-50.7229 Y54.1985 I3.3731 J-4.962
G1 X-51.2641 Y53.7787
G3 X-51.5542 Y53.5387 I3.6775 J-4.7409
G1 X-52.0681 Y53.0857
G3 X-52.3431 Y52.8274 I3.9676 J-4.5009
G1 X-52.8274 Y52.3431
G3 X-53.0857 Y52.0681 I4.2426 J-4.2426
G1 X-53.5387 Y51.5542
G3 X-53.7787 Y51.2641 I4.5009 J-3.9676
G1 X-54.1985 Y50.7229
G3 X-54.4196 Y50.4185 I4.7409 J-3.6775
G1 X-54.8047 Y49.852
G3 X-55.0071 Y49.5332 I4.962 J-3.3731
G1 X-55.3558 Y48.9436
G3 X-55.5378 Y48.6124 I5.1644 J-3.0543
G1 X-55.8487 Y48.002
G3 X-56.0086 Y47.6624 I5.3464 J-2.7231
G1 X-56.2807 Y47.0338
G3 X-56.4198 Y46.6825 I5.5063 J-2.3835
G1 X-56.6518 Y46.038
G3 X-56.7682 Y45.6797 I5.6454 J-2.0322
G1 X-56.9593 Y45.0219
G3 X-57.0529 Y44.6574 I5.7618 J-1.6739
G1 X-57.1508 Y44.2196
G3 X-51.5455 Y36.9154 I5.8554 J-1.3094
G1 Y-36.9154
G3 X-57.1508 Y-44.2196 I0.2501 J-5.9948
G1 X-57.0529 Y-44.6574
G3 X-56.9593 Y-45.0219 I5.8554 J1.3094
G1 X-56.7682 Y-45.6797
G3 X-56.6518 Y-46.038 I5.7618 J1.6739
G1 X-56.4198 Y-46.6825
G3 X-56.2807 Y-47.0338 I5.6454 J2.0322
G1 X-56.0086 Y-47.6624
G3 X-55.8487 Y-48.002 I5.5063 J2.3835
G1 X-55.5378 Y-48.6124
G3 X-55.3558 Y-48.9436 I5.3464 J2.7231
G1 X-55.0071 Y-49.5332
G3 X-54.8047 Y-49.852 I5.1644 J3.0543
G1 X-54.4196 Y-50.4185
G3 X-54.1985 Y-50.7229 I4.962 J3.3731
G1 X-53.7787 Y-51.2641
G3 X-53.5387 Y-51.5542 I4.7409 J3.6775
G1 X-53.0857 Y-52.0681
G3 X-52.8274 Y-52.3431 I4.5009 J3.9676
G1 X-52.3431 Y-52.8274
G3 X-52.0681 Y-53.0857 I4.2426 J4.2426
G1 X-51.5542 Y-53.5387
G3 X-51.2641 Y-53.7787 I3.9676 J4.5009
G1 X-50.7229 Y-54.1985
G3 X-50.4185 Y-54.4196 I3.6775 J4.7409
G1 X-49.852 Y-54.8047
G3 X-49.5332 Y-55.0071 I3.3731 J4.962
G1 X-48.9436 Y-55.3558
G3 X-48.6124 Y-55.5378 I3.0543 J5.1644
G1 X-48.002 Y-55.8487
G3 X-47.6624 Y-56.0086 I2.7231 J5.3464
G1 X-47.0338 Y-56.2807
G3 X-46.6825 Y-56.4198 I2.3835 J5.5063
G1 X-46.038 Y-56.6518
G3 X-45.6797 Y-56.7682 I2.0322 J5.6454
G1 X-45.0219 Y-56.9593
G3 X-44.6574 Y-57.0529 I1.6739 J5.7618
G1 X-44.2196 Y-57.1508
G3 X-36.9154 Y-51.5455 I1.3094 J5.8554
G1 X0.0
G1 Z-50.0
G1 X36.9154
G3 X44.2196 Y-57.1508 I5.9948 J0.2501
G1 X44.6574 Y-57.0529
G3 X45.0219 Y-56.9593 I-1.3094 J5.8554
G1 X45.6797 Y-56.7682
G3 X46.038 Y-56.6518 I-1.6739 J5.7618
G1 X46.6825 Y-56.4198
G3 X47.0338 Y-56.2807 I-2.0322 J5.6454
G1 X47.6624 Y-56.0086
G3 X48.002 Y-55.8487 I-2.3835 J5.5063
G1 X48.6124 Y-55.5378
G3 X48.9436 Y-55.3558 I-2.7231 J5.3464
G1 X49.5332 Y-55.0071
G3 X49.852 Y-54.8047 I-3.0543 J5.1644
G1 X50.4185 Y-54.4196
G3 X50.7229 Y-54.1985 I-3.3731 J4.962
G1 X51.2641 Y-53.7787
G3 X51.5542 Y-53.5387 I-3.6775 J4.7409
G1 X52.0681 Y-53.0857
G3 X52.3431 Y-52.8274 I-3.9676 J4.5009
G1 X52.8274 Y-52.3431
G3 X53.0857 Y-52.0681 I-4.2426 J4.2426
G1 X53.5387 Y-51.5542
G3 X53.7787 Y-51.2641 I-4.5009 J3.9676
G1 X54.1985 Y-50.7229
G3 X54.4196 Y-50.4185 I-4.7409 J3.6775
G1 X54.8047 Y-49.852
G3 X55.0071 Y-49.5332 I-4.962 J3.3731
G1 X55.3558 Y-48.9436
G3 X55.5378 Y-48.6124 I-5.1644 J3.0543
G1 X55.8487 Y-48.002
G3 X56.0086 Y-47.6624 I-5.3464 J2.7231
G1 X56.2807 Y-47.0338
G3 X56.4198 Y-46.6825 I-5.5063 J2.3835
G1 X56.6518 Y-46.038
G3 X56.7682 Y-45.6797 I-5.6454 J2.0322
G1 X56.9593 Y-45.0219
G3 X57.0531 Y-44.6566 I-5.7618 J1.6739
G1 X57.2025 Y-43.9881
G3 X57.273 Y-43.6186 I-5.8556 J1.3086
G1 X57.3802 Y-42.9421
G3 X57.4274 Y-42.5679 I-5.9261 J0.9391
G1 X57.4919 Y-41.8859
G3 X57.5156 Y-41.5093 I-5.9733 J0.5649
G1 X57.5371 Y-40.8247
G3 X57.5401 Y-40.6364 I-5.997 J0.1883
G1 Y40.6364
G3 X57.5371 Y40.8247 I-6.0 J0.0
G1 X57.5156 Y41.5093
G3 X57.4919 Y41.8859 I-5.997 J-0.1883
G1 X57.4274 Y42.5679
G3 X57.3802 Y42.9421 I-5.9733 J-0.5649
G1 X57.273 Y43.6186
G3 X57.2025 Y43.9881 I-5.9261 J-0.9391
G1 X57.0531 Y44.6566
G3 X56.9593 Y45.0219 I-5.8556 J-1.3086
G1 X56.7682 Y45.6797
G3 X56.6518 Y46.038 I-5.7618 J-1.6739
G1 X56.4198 Y46.6825
G3 X56.2807 Y47.0338 I-5.6454 J-2.0322
G1 X56.0086 Y47.6624
G3 X55.8487 Y48.002 I-5.5063 J-2.3835
G1 X55.5378 Y48.6124
G3 X55.3558 Y48.9436 I-5.3464 J-2.7231
G1 X55.0071 Y49.5332
G3 X54.8047 Y49.852 I-5.1644 J-3.0543
G1 X54.4196 Y50.4185
G3 X54.1985 Y50.7229 I-4.962 J-3.3731
G1 X53.7787 Y51.2641
G3 X53.5387 Y51.5542 I-4.7409 J-3.6775
G1 X53.0857 Y52.0681
G3 X52.8274 Y52.3431 I-4.5009 J-3.9676
G1 X52.3431 Y52.8274
G3 X52.0681 Y53.0857 I-4.2426 J-4.2426
G1 X51.5542 Y53.5387
G3 X51.2641 Y53.7787 I-3.9676 J-4.5009
G1 X50.7229 Y54.1985
G3 X50.4185 Y54.4196 I-3.6775 J-4.7409
G1 X49.852 Y54.8047
G3 X49.5332 Y55.0071 I-3.3731 J-4.962
G1 X48.9436 Y55.3558
G3 X48.6124 Y55.5378 I-3.0543 J-5.1644
G1 X48.002 Y55.8487
G3 X47.6624 Y56.0086 I-2.7231 J-5.3464
G1 X47.0338 Y56.2807
G3 X46.6825 Y56.4198 I-2.3835 J-5.5063
G1 X46.038 Y56.6518
G3 X45.6797 Y56.7682 I-2.0322 J-5.6454
G1 X45.0219 Y56.9593
G3 X44.6566 Y57.0531 I-1.6739 J-5.7618
G1 X43.9881 Y57.2025
G3 X43.6186 Y57.273 I-1.3086 J-5.8556
G1 X42.9421 Y57.3802
G3 X42.5679 Y57.4274 I-0.9391 J-5.9261
G1 X41.8859 Y57.4919
G3 X41.5093 Y57.5156 I-0.5649 J-5.9733
G1 X40.8247 Y57.5371
G3 X40.6364 Y57.5401 I-0.1883 J-5.997
G1 X-40.6364
G3 X-40.8247 Y57.5371 I0.0 J-6.0
G1 X-41.5093 Y57.5156
G3 X-41.8859 Y57.4919 I0.1883 J-5.997
G1 X-42.5679 Y57.4274
G3 X-42.9421 Y57.3802 I0.5649 J-5.9733
G1 X-43.6186 Y57.273
G3 X-43.9881 Y57.2025 I0.9391 J-5.9261
G1 X-44.6566 Y57.0531
G3 X-45.0219 Y56.9593 I1.3086 J-5.8556
G1 X-45.6797 Y56.7682
G3 X-46.038 Y56.6518 I1.6739 J-5.7618
G1 X-46.6825 Y56.4198
G3 X-47.0338 Y56.2807 I2.0322 J-5.6454
G1 X-47.6624 Y56.0086
G3 X-48.002 Y55.8487 I2.3835 J-5.5063
G1 X-48.6124 Y55.5378
G3 X-48.9436 Y55.3558 I2.7231 J-5.3464
G1 X-49.5332 Y55.0071
G3 X-49.852 Y54.8047 I3.0543 J-5.1644
G1 X-50.4185 Y54.4196
G3 X-50.7229 Y54.1985 I3.3731 J-4.962
G1 X-51.2641 Y53.7787
G3 X-51.5542 Y53.5387 I3.6775 J-4.7409
G1 X-52.0681 Y53.0857
G3 X-52.3431 Y52.8274 I3.9676 J-4.5009
G1 X-52.8274 Y52.3431
G3 X-53.0857 Y52.0681 I4.2426 J-4.2426
G1 X-53.5387 Y51.5542
G3 X-53.7787 Y51.2641 I4.5009 J-3.9676
G1 X-54.1985 Y50.7229
G3 X-54.4196 Y50.4185 I4.7409 J-3.6775
G1 X-54.8047 Y49.852
G3 X-55.0071 Y49.5332 I4.962 J-3.3731
G1 X-55.3558 Y48.9436
G3 X-55.5378 Y48.6124 I5.1644 J-3.0543
G1 X-55.8487 Y48.002
G3 X-56.0086 Y47.6624 I5.3464 J-2.7231
G1 X-56.2807 Y47.0338
G3 X-56.4198 Y46.6825 I5.5063 J-2.3835
G1 X-56.6518 Y46.038
G3 X-56.7682 Y45.6797 I5.6454 J-2.0322
G1 X-56.9593 Y45.0219
G3 X-57.0529 Y44.6574 I5.7618 J-1.6739
G1 X-57.1508 Y44.2196
G3 X-51.5455 Y36.9154 I5.8554 J-1.3094
G1 Y-36.9154
G3 X-57.1508 Y-44.2196 I0.2501 J-5.9948
G1 X-57.0529 Y-44.6574
G3 X-56.9593 Y-45.0219 I5.8554 J1.3094
G1 X-56.7682 Y-45.6797
G3 X-56.6518 Y-46.038 I5.7618 J1.6739
G1 X-56.4198 Y-46.6825
G3 X-56.2807 Y-47.0338 I5.6454 J2.0322
G1 X-56.0086 Y-47.6624
G3 X-55.8487 Y-48.002 I5.5063 J2.3835
G1 X-55.5378 Y-48.6124
G3 X-55.3558 Y-48.9436 I5.3464 J2.7231
G1 X-55.0071 Y-49.5332
G3 X-54.8047 Y-49.852 I5.1644 J3.0543
G1 X-54.4196 Y-50.4185
G3 X-54.1985 Y-50.7229 I4.962 J3.3731
G1 X-53.7787 Y-51.2641
G3 X-53.5387 Y-51.5542 I4.7409 J3.6775
G1 X-53.0857 Y-52.0681
G3 X-52.8274 Y-52.3431 I4.5009 J3.9676
G1 X-52.3431 Y-52.8274
G3 X-52.0681 Y-53.0857 I4.2426 J4.2426
G1 X-51.5542 Y-53.5387
G3 X-51.2641 Y-53.7787 I3.9676 J4.5009
G1 X-50.7229 Y-54.1985
G3 X-50.4185 Y-54.4196 I3.6775 J4.7409
G1 X-49.852 Y-54.8047
G3 X-49.5332 Y-55.0071 I3.3731 J4.962
G1 X-48.9436 Y-55.3558
G3 X-48.6124 Y-55.5378 I3.0543 J5.1644
G1 X-48.002 Y-55.8487
G3 X-47.6624 Y-56.0086 I2.7231 J5.3464
G1 X-47.0338 Y-56.2807
G3 X-46.6825 Y-56.4198 I2.3835 J5.5063
G1 X-46.038 Y-56.6518
G3 X-45.6797 Y-56.7682 I2.0322 J5.6454
G1 X-45.0219 Y-56.9593
G3 X-44.6574 Y-57.0529 I1.6739 J5.7618
G1 X-44.2196 Y-57.1508
G3 X-36.9154 Y-51.5455 I1.3094 J5.8554
G1 X0.0
G0 Z5.0
M30
