; generated by Slic3r 1.3.0 on 2019-04-09 at 17:49:12

; Print Config Notes: 
; Hmm, it seems Slic3r sometimes doesn't produce sensible infill when the width is large/different from the perimeter width, so maybe leave it as 0.5 mm for now. 0.75 mm looked like it should be usable, however.
; 
; external perimeters extrusion width = 0.50mm (6.27mm^3/s)
; perimeters extrusion width = 0.50mm (10.45mm^3/s)
; infill extrusion width = 0.75mm (16.45mm^3/s)
; solid infill extrusion width = 0.75mm (16.45mm^3/s)
; top infill extrusion width = 0.50mm (6.27mm^3/s)

M107
M190 S70 ; set bed temperature and wait for it to be reached
M104 S180 ; set temperature
G28 ; home all axes
G1 Z5 F5000 ; lift nozzle

; Filament gcode

M109 S180 ; set temperature and wait for it to be reached
G21 ; set units to millimeters
G90 ; use absolute coordinates
M82 ; use absolute distances for extrusion
G92 E0
G1 E-4.00000 F10800.00000
G92 E0
G1 Z0.100 F7800.000
G1 Z0.150 F7800.000
G1 Z0.250 F7800.000
G1 X-46.587 Y36.545 F7800.000
G1 Z0.150 F7800.000
G1 E4.00000 F10800.00000
G1 F1800
G1 X-46.585 Y-40.780 E5.93418
G1 X-46.556 Y-41.238 E5.94564
G1 X-46.452 Y-41.895 E5.96229
G1 X-46.248 Y-42.613 E5.98096
G1 X-46.081 Y-43.036 E5.99234
G1 X-45.780 Y-43.627 E6.00892
G1 X-45.533 Y-44.016 E6.02045
G1 X-45.125 Y-44.541 E6.03709
G1 X-44.602 Y-45.072 E6.05574
G1 X-44.250 Y-45.363 E6.06716
G1 X-43.696 Y-45.739 E6.08390
G1 X-43.304 Y-45.955 E6.09509
G1 X-42.693 Y-46.220 E6.11176
G1 X-42.252 Y-46.363 E6.12335
G1 X-41.609 Y-46.506 E6.13984
G1 X-41.158 Y-46.563 E6.15121
G1 X-40.780 Y-46.585 E6.16066
G1 X40.637 Y-46.587 E8.19719
G1 X41.238 Y-46.556 E8.21224
G1 X41.895 Y-46.452 E8.22888
G1 X42.613 Y-46.248 E8.24755
G1 X43.036 Y-46.081 E8.25893
G1 X43.627 Y-45.780 E8.27552
G1 X44.016 Y-45.533 E8.28705
G1 X44.602 Y-45.072 E8.30568
G1 X45.072 Y-44.601 E8.32234
G1 X45.363 Y-44.250 E8.33375
G1 X45.739 Y-43.696 E8.35050
G1 X45.955 Y-43.304 E8.36169
G1 X46.220 Y-42.693 E8.37835
G1 X46.363 Y-42.252 E8.38993
G1 X46.506 Y-41.609 E8.40643
G1 X46.563 Y-41.157 E8.41781
G1 X46.585 Y-40.780 E8.42726
G1 X46.587 Y40.637 E10.46378
G1 X46.556 Y41.237 E10.47883
G1 X46.451 Y41.896 E10.49550
G1 X46.248 Y42.613 E10.51414
G1 X46.081 Y43.036 E10.52553
G1 X45.780 Y43.627 E10.54211
G1 X45.533 Y44.016 E10.55365
G1 X45.073 Y44.601 E10.57227
G1 X44.601 Y45.073 E10.58894
G1 X44.250 Y45.363 E10.60035
G1 X43.696 Y45.739 E10.61709
G1 X43.304 Y45.955 E10.62829
G1 X42.693 Y46.220 E10.64495
G1 X42.253 Y46.362 E10.65652
G1 X41.609 Y46.506 E10.67303
G1 X41.157 Y46.563 E10.68440
G1 X40.780 Y46.585 E10.69386
G1 X-40.637 Y46.587 E12.73038
G1 X-41.157 Y46.563 E12.74342
G1 X-41.895 Y46.451 E12.76209
G1 X-42.613 Y46.248 E12.78074
G1 X-43.304 Y45.955 E12.79952
G1 X-43.950 Y45.578 E12.81822
G1 X-44.541 Y45.126 E12.83685
G1 X-45.072 Y44.602 E12.85551
G1 X-45.533 Y44.016 E12.87414
G1 X-45.918 Y43.375 E12.89285
G1 X-46.113 Y42.962 E12.90428
G1 X-46.339 Y42.335 E12.92095
G1 X-46.452 Y41.895 E12.93231
G1 X-46.556 Y41.238 E12.94896
G1 X-46.587 Y40.637 E12.96401
G1 X-46.587 Y36.605 E13.06485
G1 X-46.169 Y36.545 F7800.000
G1 F1800
G1 X-46.167 Y-40.767 E14.99871
G1 X-46.140 Y-41.198 E15.00951
G1 X-46.044 Y-41.804 E15.02484
G1 X-45.855 Y-42.472 E15.04221
G1 X-45.697 Y-42.870 E15.05292
G1 X-45.420 Y-43.414 E15.06820
G1 X-45.188 Y-43.781 E15.07907
G1 X-44.759 Y-44.325 E15.09640
G1 X-44.325 Y-44.759 E15.11174
G1 X-43.994 Y-45.033 E15.12249
G1 X-43.484 Y-45.379 E15.13792
G1 X-43.114 Y-45.583 E15.14847
G1 X-42.551 Y-45.827 E15.16382
G1 X-42.136 Y-45.961 E15.17474
G1 X-41.543 Y-46.094 E15.18993
G1 X-41.118 Y-46.147 E15.20064
G1 X-40.767 Y-46.167 E15.20943
G1 X40.637 Y-46.169 E17.24563
G1 X41.198 Y-46.140 E17.25970
G1 X41.804 Y-46.044 E17.27503
G1 X42.472 Y-45.855 E17.29239
G1 X42.870 Y-45.697 E17.30311
G1 X43.415 Y-45.420 E17.31840
G1 X43.781 Y-45.188 E17.32926
G1 X44.325 Y-44.759 E17.34658
G1 X44.759 Y-44.325 E17.36193
G1 X45.033 Y-43.994 E17.37268
G1 X45.380 Y-43.484 E17.38811
G1 X45.583 Y-43.114 E17.39866
G1 X45.827 Y-42.551 E17.41401
G1 X45.961 Y-42.136 E17.42491
G1 X46.094 Y-41.543 E17.44011
G1 X46.147 Y-41.118 E17.45083
G1 X46.167 Y-40.767 E17.45962
G1 X46.169 Y40.637 E19.49582
G1 X46.140 Y41.198 E19.50988
G1 X46.044 Y41.804 E19.52524
G1 X45.855 Y42.471 E19.54257
G1 X45.697 Y42.870 E19.55330
G1 X45.420 Y43.414 E19.56858
G1 X45.188 Y43.781 E19.57945
G1 X44.759 Y44.325 E19.59676
G1 X44.325 Y44.759 E19.61212
G1 X43.994 Y45.033 E19.62287
G1 X43.484 Y45.379 E19.63829
G1 X43.114 Y45.583 E19.64885
G1 X42.551 Y45.827 E19.66420
G1 X42.137 Y45.961 E19.67509
G1 X41.543 Y46.094 E19.69031
G1 X41.118 Y46.147 E19.70102
G1 X40.767 Y46.167 E19.70981
G1 X-40.637 Y46.169 E21.74600
G1 X-41.118 Y46.147 E21.75806
G1 X-41.804 Y46.044 E21.77542
G1 X-42.471 Y45.855 E21.79276
G1 X-43.114 Y45.583 E21.81022
G1 X-43.715 Y45.233 E21.82761
G1 X-44.265 Y44.812 E21.84493
G1 X-44.759 Y44.325 E21.86229
G1 X-45.188 Y43.781 E21.87961
G1 X-45.546 Y43.186 E21.89700
G1 X-45.729 Y42.796 E21.90776
G1 X-45.937 Y42.218 E21.92313
G1 X-46.094 Y41.543 E21.94046
G1 X-46.147 Y41.118 E21.95118
G1 X-46.169 Y40.637 E21.96323
G1 X-46.169 Y36.605 E22.06407
G1 X-45.751 Y36.545 F7800.000
G1 F1800
G1 X-45.749 Y-40.754 E23.99761
G1 X-45.724 Y-41.159 E24.00774
G1 X-45.636 Y-41.713 E24.02177
G1 X-45.462 Y-42.330 E24.03782
G1 X-45.314 Y-42.704 E24.04788
G1 X-45.060 Y-43.202 E24.06186
G1 X-44.842 Y-43.546 E24.07205
G1 X-44.499 Y-43.989 E24.08606
G1 X-44.049 Y-44.446 E24.10210
G1 X-43.738 Y-44.703 E24.11219
G1 X-43.271 Y-45.020 E24.12630
G1 X-42.924 Y-45.210 E24.13621
G1 X-42.409 Y-45.434 E24.15025
G1 X-42.020 Y-45.560 E24.16049
G1 X-41.478 Y-45.681 E24.17439
G1 X-41.079 Y-45.732 E24.18444
G1 X-40.754 Y-45.749 E24.19257
G1 X40.637 Y-45.751 E26.22844
G1 X41.159 Y-45.724 E26.24152
G1 X41.713 Y-45.636 E26.25555
G1 X42.330 Y-45.462 E26.27160
G1 X42.704 Y-45.314 E26.28166
G1 X43.202 Y-45.060 E26.29564
G1 X43.546 Y-44.842 E26.30583
G1 X44.049 Y-44.446 E26.32184
G1 X44.446 Y-44.049 E26.33588
G1 X44.703 Y-43.738 E26.34597
G1 X45.020 Y-43.271 E26.36008
G1 X45.210 Y-42.924 E26.36999
G1 X45.434 Y-42.409 E26.38403
G1 X45.560 Y-42.020 E26.39426
G1 X45.681 Y-41.478 E26.40816
G1 X45.732 Y-41.079 E26.41823
G1 X45.749 Y-40.754 E26.42634
G1 X45.751 Y40.637 E28.46222
G1 X45.724 Y41.159 E28.47530
G1 X45.636 Y41.713 E28.48934
G1 X45.462 Y42.330 E28.50537
G1 X45.314 Y42.704 E28.51544
G1 X45.060 Y43.202 E28.52942
G1 X44.842 Y43.546 E28.53961
G1 X44.446 Y44.049 E28.55562
G1 X44.049 Y44.446 E28.56966
G1 X43.738 Y44.703 E28.57975
G1 X43.271 Y45.020 E28.59386
G1 X42.924 Y45.210 E28.60377
G1 X42.409 Y45.434 E28.61781
G1 X42.021 Y45.560 E28.62803
G1 X41.477 Y45.681 E28.64195
G1 X41.079 Y45.732 E28.65200
G1 X40.637 Y45.751 E28.66307
G1 X-40.637 Y45.751 E30.69600
G1 X-41.079 Y45.732 E30.70707
G1 X-41.713 Y45.636 E30.72312
G1 X-42.330 Y45.462 E30.73915
G1 X-42.924 Y45.210 E30.75529
G1 X-43.480 Y44.887 E30.77136
G1 X-43.989 Y44.499 E30.78738
G1 X-44.446 Y44.049 E30.80342
G1 X-44.842 Y43.546 E30.81944
G1 X-45.174 Y42.996 E30.83552
G1 X-45.346 Y42.630 E30.84562
G1 X-45.536 Y42.102 E30.85967
G1 X-45.681 Y41.477 E30.87570
G1 X-45.732 Y41.079 E30.88575
G1 X-45.751 Y40.637 E30.89682
G1 X-45.751 Y36.605 E30.99766
G1 X-45.333 Y36.545 F7800.000
G1 F1800
G1 X-45.332 Y-40.742 E32.93088
G1 X-45.308 Y-41.119 E32.94034
G1 X-45.228 Y-41.621 E32.95306
G1 X-45.069 Y-42.189 E32.96780
G1 X-44.931 Y-42.538 E32.97720
G1 X-44.701 Y-42.990 E32.98988
G1 X-44.497 Y-43.311 E32.99939
G1 X-44.185 Y-43.712 E33.01210
G1 X-43.773 Y-44.132 E33.02683
G1 X-43.482 Y-44.373 E33.03626
G1 X-43.059 Y-44.660 E33.04905
G1 X-42.734 Y-44.838 E33.05832
G1 X-42.267 Y-45.041 E33.07105
G1 X-41.904 Y-45.159 E33.08061
G1 X-41.412 Y-45.268 E33.09321
G1 X-41.039 Y-45.316 E33.10261
G1 X-40.637 Y-45.333 E33.11270
G1 X40.637 Y-45.333 E35.14562
G1 X41.119 Y-45.308 E35.15771
G1 X41.621 Y-45.228 E35.17043
G1 X42.189 Y-45.069 E35.18517
G1 X42.538 Y-44.931 E35.19457
G1 X42.990 Y-44.701 E35.20725
G1 X43.311 Y-44.497 E35.21677
G1 X43.773 Y-44.132 E35.23148
G1 X44.132 Y-43.772 E35.24420
G1 X44.373 Y-43.482 E35.25363
G1 X44.660 Y-43.059 E35.26643
G1 X44.838 Y-42.734 E35.27569
G1 X45.041 Y-42.267 E35.28842
G1 X45.158 Y-41.904 E35.29797
G1 X45.268 Y-41.412 E35.31058
G1 X45.316 Y-41.039 E35.31998
G1 X45.333 Y-40.637 E35.33007
G1 X45.333 Y40.637 E37.36299
G1 X45.308 Y41.119 E37.37508
G1 X45.228 Y41.622 E37.38782
G1 X45.069 Y42.189 E37.40254
G1 X44.931 Y42.538 E37.41194
G1 X44.701 Y42.990 E37.42462
G1 X44.497 Y43.311 E37.43414
G1 X44.132 Y43.772 E37.44884
G1 X43.772 Y44.132 E37.46157
G1 X43.482 Y44.373 E37.47100
G1 X43.059 Y44.660 E37.48379
G1 X42.734 Y44.838 E37.49306
G1 X42.267 Y45.041 E37.50579
G1 X41.904 Y45.158 E37.51533
G1 X41.412 Y45.268 E37.52795
G1 X41.039 Y45.316 E37.53735
G1 X40.637 Y45.333 E37.54744
G1 X-40.637 Y45.333 E39.58036
G1 X-41.039 Y45.316 E39.59044
G1 X-41.622 Y45.228 E39.60518
G1 X-42.189 Y45.069 E39.61991
G1 X-42.734 Y44.838 E39.63473
G1 X-43.245 Y44.542 E39.64949
G1 X-43.772 Y44.132 E39.66620
G1 X-44.185 Y43.712 E39.68093
G1 X-44.542 Y43.245 E39.69564
G1 X-44.838 Y42.734 E39.71040
G1 X-45.041 Y42.267 E39.72314
G1 X-45.159 Y41.904 E39.73269
G1 X-45.268 Y41.412 E39.74530
G1 X-45.316 Y41.039 E39.75470
G1 X-45.333 Y40.637 E39.76478
G1 X-45.333 Y36.605 E39.86562
G1 F6240
G1 X-45.333 Y34.294 E36.06562
G1 E35.86562 F10800.00000
G92 E0
G1 Z0.250 F7800.000
G1 X37.843 Y41.690 F7800.000
G1 Z0.150 F7800.000
G1 E4.00000 F10800.00000
G1 F480
G1 X37.793 Y41.505 E4.00479
G1 X38.546 Y41.009 E4.02735
G1 X39.098 Y40.580 E4.04484
G1 X39.623 Y40.118 E4.06234
G1 X40.121 Y39.619 E4.07995
G1 X40.580 Y39.098 E4.09733
G1 X41.009 Y38.546 E4.11483
G1 X41.505 Y37.792 E4.13739
G1 X41.690 Y37.843 E4.14218
G1 X41.688 Y40.699 E4.21362
G1 X41.656 Y40.898 E4.21867
G1 X41.589 Y41.085 E4.22362
G1 X41.488 Y41.255 E4.22858
G1 X41.357 Y41.404 E4.23354
G1 X41.088 Y41.588 E4.24169
G1 X40.898 Y41.656 E4.24674
G1 X40.699 Y41.688 E4.25179
G1 X37.903 Y41.690 E4.32172
G1 F6240
G1 X37.793 Y41.505 E3.96800
G1 F6240
G1 X37.967 Y41.402 E3.63476
G1 F6240
G1 X38.546 Y41.009 E2.48467
G1 F6240
G1 X39.098 Y40.580 E1.33456
G1 F6240
G1 X39.469 Y40.253 E0.52172
G1 E0.32172 F10800.00000
G92 E0
G1 Z0.250 F7800.000
G1 X41.657 Y37.601 F7800.000
G1 Z0.150 F7800.000
G1 E4.00000 F10800.00000
G1 F1440
G1 X41.875 Y36.766 E4.01802
G1 F6240
G1 X41.657 Y37.601 E2.59958
G1 E0.01802 F10800.00000
G92 E0
G1 Z0.250 F7800.000
G1 X40.601 Y40.574 F7800.000
G1 X37.601 Y41.657 F7800.000
G1 Z0.150 F7800.000
G1 E4.00000 F10800.00000
G1 F1440
G1 X36.766 Y41.874 E4.01943
G1 X38.287 Y41.469 F7800.000
G1 F1920
G1 X38.939 Y41.254 E4.03214
G1 X39.164 Y41.085 F7800.000
G1 F2400
G1 X39.401 Y40.848 E4.04121
G1 X40.027 Y40.304 E4.06366
G1 X40.544 Y39.787 E4.08344
G1 X41.084 Y39.164 E4.10576
G1 X40.848 Y39.400 F7800.000
G1 F2400
G1 X41.085 Y39.164 E4.11481
G1 X41.389 Y39.268 E4.12353
G1 X41.389 Y39.499 E4.12977
G1 X39.499 Y41.389 E4.20213
G1 X40.139 Y41.389 E4.21945
G1 X41.389 Y40.139 E4.26730
G1 X41.388 Y40.548 E4.27837
G1 X41.328 Y40.788 E4.28508
G1 X41.267 Y40.891 E4.28831
G1 X40.960 Y41.207 E4.30025
G1 F6240
G1 X41.267 Y40.891 E3.57480
G1 F6240
G1 X41.328 Y40.788 E3.37878
G1 F6240
G1 X41.388 Y40.548 E2.97123
G1 F6240
G1 X41.389 Y40.139 E2.29896
G1 F6240
G1 X40.615 Y40.912 E0.50025
G1 E0.30025 F10800.00000
G92 E0
G1 Z0.250 F7800.000
G1 X41.254 Y38.939 F7800.000
G1 Z0.150 F7800.000
G1 E4.00000 F10800.00000
G1 F1920
G1 X41.469 Y38.287 E4.01256
G1 F6240
G1 X41.254 Y38.939 E2.88419
G1 E0.01256 F10800.00000
G92 E0
G1 Z0.250 F7800.000
G1 X-37.843 Y41.690 F7800.000
G1 Z0.150 F7800.000
G1 E4.00000 F10800.00000
G1 F480
G1 X-40.699 Y41.688 E4.07143
G1 X-40.898 Y41.656 E4.07648
G1 X-41.088 Y41.588 E4.08153
G1 X-41.357 Y41.404 E4.08968
G1 X-41.488 Y41.255 E4.09464
G1 X-41.589 Y41.085 E4.09960
G1 X-41.656 Y40.898 E4.10456
G1 X-41.688 Y40.699 E4.10961
G1 X-41.690 Y37.843 E4.18104
G1 X-41.505 Y37.793 E4.18582
G1 X-41.009 Y38.546 E4.20838
G1 X-40.580 Y39.098 E4.22588
G1 X-40.118 Y39.623 E4.24338
G1 X-39.623 Y40.118 E4.26087
G1 X-39.098 Y40.580 E4.27837
G1 X-38.546 Y41.009 E4.29586
G1 X-37.793 Y41.505 E4.31842
G1 X-37.827 Y41.632 E4.32171
G1 F6240
G1 X-40.138 Y41.677 E0.52171
G1 E0.32171 F10800.00000
G92 E0
G1 Z0.250 F7800.000
G1 X-40.575 Y40.602 F7800.000
G1 X-41.657 Y37.601 F7800.000
G1 Z0.150 F7800.000
G1 E4.00000 F10800.00000
G1 F1440
G1 X-41.873 Y36.776 E4.01921
G1 F6240
G1 X-41.657 Y37.601 E2.61652
G1 E0.01921 F10800.00000
G92 E0
G1 Z0.250 F7800.000
G1 X-40.575 Y40.602 F7800.000
G1 X-37.601 Y41.657 F7800.000
G1 Z0.150 F7800.000
G1 E4.00000 F10800.00000
G1 F1440
G1 X-36.766 Y41.874 E4.01801
G1 X-38.287 Y41.469 F7800.000
G1 F1920
G1 X-38.939 Y41.254 E4.03056
G1 X-39.505 Y41.389 F7800.000
G1 F2400
G1 X-39.268 Y41.153 E4.03946
G1 X-39.164 Y40.848 E4.04802
G1 X-39.396 Y40.652 E4.05609
G1 X-40.133 Y41.389 E4.08379
G1 X-40.760 Y41.388 E4.10048
G1 X-39.730 Y40.358 E4.13923
G1 X-40.048 Y40.048 E4.15104
G1 X-41.201 Y41.201 E4.19443
G1 X-41.267 Y41.127 E4.19707
G1 X-41.368 Y40.912 E4.20338
G1 X-41.388 Y40.760 E4.20746
G1 X-40.358 Y39.730 E4.24620
G1 X-40.652 Y39.396 E4.25804
G1 X-41.389 Y40.133 E4.28574
G1 X-41.389 Y39.505 E4.30243
G1 X-41.153 Y39.268 E4.31132
G1 X-41.254 Y38.939 F7800.000
G1 F1920
G1 X-41.469 Y38.287 E4.32404
G1 F6240
G1 X-41.254 Y38.939 E3.19537
G1 E0.32404 F10800.00000
G92 E0
G1 Z0.250 F7800.000
G1 X-41.690 Y-37.843 F7800.000
G1 Z0.150 F7800.000
G1 E4.00000 F10800.00000
G1 F480
G1 X-41.688 Y-40.699 E4.07143
G1 X-41.656 Y-40.898 E4.07648
G1 X-41.588 Y-41.088 E4.08153
G1 X-41.404 Y-41.357 E4.08968
G1 X-41.255 Y-41.488 E4.09464
G1 X-41.085 Y-41.589 E4.09960
G1 X-40.898 Y-41.656 E4.10456
G1 X-40.699 Y-41.688 E4.10961
G1 X-37.843 Y-41.690 E4.18104
G1 X-37.793 Y-41.505 E4.18582
G1 X-38.546 Y-41.009 E4.20838
G1 X-39.098 Y-40.580 E4.22588
G1 X-39.623 Y-40.118 E4.24338
G1 X-40.118 Y-39.623 E4.26087
G1 X-40.580 Y-39.098 E4.27837
G1 X-41.009 Y-38.546 E4.29586
G1 X-41.505 Y-37.793 E4.31842
G1 X-41.632 Y-37.827 E4.32171
G1 F6240
G1 X-41.677 Y-40.138 E0.52171
G1 E0.32171 F10800.00000
G92 E0
G1 Z0.250 F7800.000
G1 X-40.601 Y-40.574 F7800.000
G1 X-37.601 Y-41.657 F7800.000
G1 Z0.150 F7800.000
G1 E4.00000 F10800.00000
G1 F1440
G1 X-36.766 Y-41.874 E4.01801
G1 F6240
G1 X-37.601 Y-41.657 E2.59955
G1 E0.01801 F10800.00000
G92 E0
G1 Z0.250 F7800.000
G1 X-40.601 Y-40.574 F7800.000
G1 X-41.657 Y-37.601 F7800.000
G1 Z0.150 F7800.000
G1 E4.00000 F10800.00000
G1 F1440
G1 X-41.874 Y-36.766 E4.01943
G1 X-41.469 Y-38.287 F7800.000
G1 F1920
G1 X-41.254 Y-38.939 E4.03214
G1 X-41.085 Y-39.164 F7800.000
G1 F2400
G1 X-40.848 Y-39.400 E4.04119
G1 X-41.206 Y-40.961 F7800.000
G1 F2400
G1 X-40.891 Y-41.267 E4.05307
G1 X-40.788 Y-41.328 E4.05630
G1 X-40.548 Y-41.388 E4.06301
G1 X-40.139 Y-41.389 E4.07408
G1 X-41.389 Y-40.139 E4.12193
G1 X-41.389 Y-39.499 E4.13925
G1 X-39.499 Y-41.389 E4.21161
G1 X-39.268 Y-41.389 E4.21785
G1 X-39.164 Y-41.085 E4.22657
G1 X-39.401 Y-40.848 E4.23564
G1 X-38.939 Y-41.254 F7800.000
G1 F1920
G1 X-38.287 Y-41.469 E4.24819
G1 F6240
G1 X-38.939 Y-41.254 E3.11998
G1 E0.24819 F10800.00000
G92 E0
G1 Z0.250 F7800.000
G1 X37.792 Y-41.505 F7800.000
G1 Z0.150 F7800.000
G1 E4.00000 F10800.00000
G1 F480
G1 X37.843 Y-41.690 E4.00479
G1 X40.699 Y-41.688 E4.07622
G1 X40.898 Y-41.656 E4.08127
G1 X41.085 Y-41.589 E4.08623
G1 X41.255 Y-41.488 E4.09119
G1 X41.404 Y-41.357 E4.09615
G1 X41.588 Y-41.088 E4.10430
G1 X41.656 Y-40.898 E4.10935
G1 X41.688 Y-40.699 E4.11440
G1 X41.690 Y-37.843 E4.18583
G1 X41.505 Y-37.793 E4.19062
G1 X41.009 Y-38.546 E4.21318
G1 X40.580 Y-39.098 E4.23067
G1 X40.118 Y-39.623 E4.24817
G1 X39.623 Y-40.118 E4.26566
G1 X39.098 Y-40.580 E4.28316
G1 X38.546 Y-41.009 E4.30066
G1 X37.844 Y-41.475 E4.32172
G1 X37.601 Y-41.657 F7800.000
G1 F1440
G1 X36.766 Y-41.875 E4.34116
G1 F6240
G1 X37.601 Y-41.657 E2.92272
G1 E0.34116 F10800.00000
G92 E0
G1 Z0.250 F7800.000
G1 X40.602 Y-40.575 F7800.000
G1 X41.657 Y-37.601 F7800.000
G1 Z0.150 F7800.000
G1 E4.00000 F10800.00000
G1 F1440
G1 X41.874 Y-36.766 E4.01801
G1 X41.469 Y-38.287 F7800.000
G1 F1920
G1 X41.254 Y-38.939 E4.03056
G1 X41.153 Y-39.268 F7800.000
G1 F2400
G1 X41.389 Y-39.505 E4.03946
