; generated by Slic3r 1.3.0 on 2019-02-26 at 16:23:56

; Print Config Notes: 
; Hmm, it seems Slic3r sometimes doesn't produce sensible infill when the width is large/different from the perimeter width, so maybe leave it as 0.5 mm for now. 0.75 mm looked like it should be usable, however.
; 
; external perimeters extrusion width = 0.50mm (7.95mm^3/s)
; perimeters extrusion width = 0.50mm (13.25mm^3/s)
; infill extrusion width = 0.75mm (21.25mm^3/s)
; solid infill extrusion width = 0.75mm (21.25mm^3/s)
; top infill extrusion width = 0.50mm (7.95mm^3/s)

M107
M190 S70 ; set bed temperature and wait for it to be reached
M104 S180 ; set temperature
G28 ; home all axes
G1 Z5 F5000 ; lift nozzle

; Filament gcode

M109 S180 ; set temperature and wait for it to be reached
G21 ; set units to millimeters
G90 ; use absolute coordinates
M82 ; use absolute distances for extrusion
G92 E0
G1 Z0.150 F7800.000
G1 E-2.00000 F2400.00000
G92 E0
G1 X-11.006 Y-15.367 F7800.000
G1 E2.00000 F2400.00000
G1 F1800
G1 X-6.146 Y-19.665 E2.16228
G1 X-0.768 Y-23.837 E2.33254
G1 X4.334 Y-27.304 E2.48682
G1 X9.913 Y-30.615 E2.64910
G1 X15.978 Y-33.705 E2.81937
G1 X21.936 Y-36.273 E2.98164
G1 X27.739 Y-38.362 E3.13592
G1 X33.762 Y-40.122 E3.29289
G1 X35.257 Y-40.325 E3.33063
G1 X37.226 Y-39.928 E3.38085
G1 X38.888 Y-38.802 E3.43107
G1 X39.984 Y-37.120 E3.48129
G1 X40.346 Y-35.235 E3.52930
G1 X40.346 Y35.257 E5.29257
G1 X39.950 Y37.226 E5.34279
G1 X38.824 Y38.888 E5.39301
G1 X37.142 Y39.984 E5.44323
G1 X35.257 Y40.346 E5.49124
G1 X-35.235 Y40.346 E7.25451
G1 X-37.204 Y39.950 E7.30473
G1 X-38.866 Y38.824 E7.35495
G1 X-39.963 Y37.142 E7.40518
G1 X-40.325 Y35.257 E7.45318
G1 X-40.122 Y33.762 E7.49091
G1 X-38.362 Y27.739 E7.64788
G1 X-36.155 Y21.639 E7.81016
G1 X-33.705 Y15.978 E7.96444
G1 X-30.769 Y10.193 E8.12671
G1 X-27.475 Y4.604 E8.28899
G1 X-23.649 Y-1.026 E8.45926
G1 X-19.665 Y-6.146 E8.62153
G1 X-15.586 Y-10.773 E8.77581
G1 X-11.048 Y-15.325 E8.93659
G1 X-10.711 Y-15.072 F7800.000
G1 F1800
G1 X-5.644 Y-19.539 E9.10554
G1 X-0.533 Y-23.492 E9.26716
G1 X4.569 Y-26.958 E9.42144
G1 X10.125 Y-30.255 E9.58306
G1 X15.878 Y-33.197 E9.74468
G1 X22.077 Y-35.880 E9.91364
G1 X27.880 Y-37.969 E10.06792
G1 X33.879 Y-39.721 E10.22423
G1 X35.257 Y-39.907 E10.25902
G1 X37.139 Y-39.511 E10.30711
G1 X38.702 Y-38.391 E10.35521
G1 X39.681 Y-36.736 E10.40330
G1 X39.928 Y-35.235 E10.44135
G1 X39.928 Y35.257 E12.20462
G1 X39.533 Y37.139 E12.25271
G1 X38.413 Y38.702 E12.30081
G1 X36.758 Y39.681 E12.34890
G1 X35.257 Y39.928 E12.38695
G1 X-35.235 Y39.928 E14.15022
G1 X-37.117 Y39.533 E14.19832
G1 X-38.680 Y38.413 E14.24641
G1 X-39.659 Y36.758 E14.29451
G1 X-39.907 Y35.182 E14.33440
G1 X-39.721 Y33.879 E14.36733
G1 X-38.060 Y28.160 E14.51631
G1 X-35.772 Y21.804 E14.68526
G1 X-33.322 Y16.144 E14.83954
G1 X-30.397 Y10.383 E15.00116
G1 X-27.116 Y4.816 E15.16278
G1 X-23.319 Y-0.770 E15.33174
G1 X-19.352 Y-5.870 E15.49335
G1 X-15.273 Y-10.497 E15.64764
G1 X-10.753 Y-15.029 E15.80776
G1 X-10.415 Y-14.776 F7800.000
G1 F1800
G1 X-5.594 Y-19.038 E15.96872
G1 X-0.298 Y-23.146 E16.13636
G1 X4.803 Y-26.613 E16.29064
G1 X10.338 Y-29.896 E16.45161
G1 X16.068 Y-32.825 E16.61257
G1 X22.219 Y-35.486 E16.78021
G1 X28.022 Y-37.576 E16.93449
G1 X33.996 Y-39.320 E17.09015
G1 X35.257 Y-39.489 E17.12199
G1 X37.048 Y-39.094 E17.16786
G1 X38.506 Y-37.981 E17.21373
G1 X39.360 Y-36.358 E17.25960
G1 X39.511 Y-35.235 E17.28794
G1 X39.511 Y35.257 E19.05121
G1 X39.115 Y37.048 E19.09708
G1 X38.003 Y38.506 E19.14295
G1 X36.380 Y39.360 E19.18882
G1 X35.257 Y39.511 E19.21716
G1 X-35.235 Y39.511 E20.98043
G1 X-37.026 Y39.115 E21.02630
G1 X-38.484 Y38.003 E21.07217
G1 X-39.338 Y36.380 E21.11804
G1 X-39.489 Y35.182 E21.14824
G1 X-39.320 Y33.996 E21.17822
G1 X-37.658 Y28.276 E21.32720
G1 X-35.388 Y21.970 E21.49484
G1 X-32.939 Y16.310 E21.64913
G1 X-30.025 Y10.572 E21.81009
G1 X-26.756 Y5.029 E21.97105
G1 X-22.989 Y-0.514 E22.13869
G1 X-19.038 Y-5.594 E22.29965
G1 X-14.959 Y-10.220 E22.45394
G1 X-10.458 Y-14.734 E22.61340
G1 X-10.120 Y-14.481 F7800.000
G1 F1800
G1 X-5.317 Y-18.725 E22.77371
G1 X-0.063 Y-22.800 E22.94004
G1 X5.038 Y-26.267 E23.09432
G1 X10.551 Y-29.536 E23.25463
G1 X16.257 Y-32.453 E23.41493
G1 X22.360 Y-35.093 E23.58126
G1 X28.164 Y-37.183 E23.73554
G1 X34.112 Y-38.919 E23.89055
G1 X35.257 Y-39.071 E23.91944
G1 X36.952 Y-38.676 E23.96297
G1 X38.298 Y-37.573 E24.00650
G1 X39.093 Y-35.235 E24.06826
G1 X39.093 Y35.257 E25.83153
G1 X38.698 Y36.952 E25.87506
G1 X37.595 Y38.298 E25.91859
G1 X35.257 Y39.093 E25.98036
G1 X-35.235 Y39.093 E27.74363
G1 X-36.930 Y38.698 E27.78716
G1 X-38.276 Y37.595 E27.83069
G1 X-39.071 Y35.257 E27.89245
G1 X-39.071 Y35.182 E27.89433
G1 X-38.919 Y34.112 E27.92136
G1 X-37.257 Y28.393 E28.07034
G1 X-35.005 Y22.136 E28.23667
G1 X-32.453 Y16.257 E28.39698
G1 X-29.652 Y10.762 E28.55126
G1 X-26.396 Y5.242 E28.71157
G1 X-22.659 Y-0.258 E28.87790
G1 X-18.725 Y-5.317 E29.03820
G1 X-14.646 Y-9.944 E29.19248
G1 X-10.162 Y-14.439 E29.35129
G1 X-9.824 Y-14.186 F7800.000
G1 F1800
G1 X-5.041 Y-18.412 E29.51094
G1 X0.172 Y-22.455 E29.67596
G1 X5.273 Y-25.922 E29.83024
G1 X10.763 Y-29.177 E29.98989
G1 X16.447 Y-32.080 E30.14954
G1 X22.502 Y-34.700 E30.31456
G1 X28.305 Y-36.790 E30.46884
G1 X34.229 Y-38.518 E30.62319
G1 X35.257 Y-38.653 E30.64914
G1 X36.851 Y-38.259 E30.69019
G1 X38.077 Y-37.168 E30.73125
G1 X38.675 Y-35.235 E30.78185
G1 X38.675 Y35.257 E32.54512
G1 X38.281 Y36.851 E32.58618
G1 X37.189 Y38.077 E32.62723
G1 X35.257 Y38.675 E32.67783
G1 X-35.235 Y38.675 E34.44110
G1 X-36.829 Y38.281 E34.48216
G1 X-38.055 Y37.189 E34.52321
G1 X-38.653 Y35.257 E34.57381
G1 X-38.518 Y34.229 E34.59976
G1 X-36.790 Y28.305 E34.75411
G1 X-34.700 Y22.502 E34.90839
G1 X-32.172 Y16.642 E35.06804
G1 X-29.280 Y10.952 E35.22769
G1 X-26.037 Y5.454 E35.38734
G1 X-22.329 Y-0.002 E35.55236
G1 X-18.412 Y-5.041 E35.71200
G1 X-14.333 Y-9.668 E35.86629
G1 X-9.867 Y-14.143 E36.02444
G1 F6240
G1 X-9.668 Y-14.333 E35.92406
G1 F6240
G1 X-5.973 Y-17.590 E34.12444
G1 E34.02444 F2400.00000
G92 E0
G1 X35.032 Y-34.958 F7800.000
G1 E2.00000 F2400.00000
G1 F1440
G1 X35.032 Y35.032 E3.75069
G1 X-34.958 Y35.032 E5.50139
G1 X-33.360 Y29.532 E5.64464
G1 X-31.275 Y23.742 E5.79857
G1 X-28.831 Y18.095 E5.95250
G1 X-26.037 Y12.612 E6.10643
G1 X-22.905 Y7.315 E6.26036
G1 X-19.446 Y2.225 E6.41429
G1 X-15.674 Y-2.637 E6.56821
G1 X-11.605 Y-7.253 E6.72214
G1 X-7.253 Y-11.605 E6.87607
G1 X-2.637 Y-15.674 E7.03000
G1 X2.225 Y-19.446 E7.18392
G1 X7.315 Y-22.905 E7.33785
G1 X12.612 Y-26.037 E7.49178
G1 X18.095 Y-28.831 E7.64571
G1 X23.742 Y-31.275 E7.79964
G1 X29.532 Y-33.360 E7.95357
G1 X34.975 Y-34.941 E8.09532
G1 F6240
G1 X34.979 Y-29.741 E6.19532
G1 E6.09532 F2400.00000
G92 E0
G1 X-6.847 Y-11.420 F7800.000
G1 E2.00000 F2400.00000
G1 F2400
G1 X-11.420 Y-6.847 E2.16185
G1 X-15.470 Y-2.253 E2.31514
G1 X-15.634 Y-2.042 E2.32180
G1 X-2.042 Y-15.634 E2.80285
G1 X0.593 Y-17.678 E2.88632
G1 X-17.678 Y0.593 E3.53299
G1 X-19.226 Y2.589 E3.59621
G1 X-19.530 Y3.037 E3.60976
G1 X3.037 Y-19.530 E4.40848
G1 X4.882 Y-20.784 E4.46431
G1 X-20.784 Y4.882 E5.37272
G1 X-22.038 Y6.727 E5.42855
G1 X6.727 Y-22.038 E6.44665
G1 X7.657 Y-22.670 E6.47479
G1 X8.375 Y-23.095 E6.49565
G1 X-23.095 Y8.375 E7.60945
G1 X-23.950 Y9.822 E7.65153
G1 X9.822 Y-23.950 E8.84682
G1 X11.268 Y-24.806 E8.88889
G1 X-24.806 Y11.268 E10.16569
G1 X-25.662 Y12.715 E10.20776
G1 X12.715 Y-25.662 E11.56605
G1 X12.931 Y-25.789 E11.57233
G1 X13.957 Y-26.312 E11.60114
G1 X-26.312 Y13.957 E13.02638
G1 X-26.926 Y15.162 E13.06024
G1 X15.162 Y-26.926 E14.54988
G1 X16.367 Y-27.540 E14.58374
G1 X-27.540 Y16.367 E16.13778
G1 X-28.154 Y17.573 E16.17164
G1 X17.573 Y-28.154 E17.79008
G1 X18.391 Y-28.571 E17.81306
G1 X18.726 Y-28.716 E17.82219
G1 X-28.716 Y18.726 E19.50132
G1 X-29.167 Y19.768 E19.52974
G1 X19.768 Y-29.167 E21.26171
G1 X20.810 Y-29.618 E21.29013
G1 X-29.618 Y20.810 E23.07495
G1 X-30.069 Y21.852 E23.10337
G1 X21.852 Y-30.069 E24.94104
G1 X22.894 Y-30.520 E24.96946
G1 X-30.520 Y22.894 E26.85997
G1 X-30.971 Y23.936 E26.88839
G1 X23.936 Y-30.971 E28.83175
G1 X24.869 Y-31.312 E28.85661
G1 X-31.312 Y24.869 E30.84506
G1 X-31.645 Y25.793 E30.86963
G1 X25.793 Y-31.645 E32.90255
G1 X26.717 Y-31.978 E32.92712
G1 X-31.978 Y26.717 E35.00451
G1 X-32.310 Y27.640 E35.02908
G1 X27.640 Y-32.310 E37.15093
G1 X28.564 Y-32.643 E37.17550
G1 X-32.643 Y28.564 E39.34182
G1 X-32.975 Y29.488 E39.36640
G1 X29.488 Y-32.975 E41.57718
G1 X29.780 Y-33.080 E41.58494
G1 X30.350 Y-33.246 E41.59980
G1 X-33.246 Y30.350 E43.85067
G1 X-33.488 Y31.183 E43.87239
G1 X31.183 Y-33.488 E46.16132
G1 X32.016 Y-33.730 E46.18304
G1 X-33.730 Y32.016 E48.51003
G1 X-33.972 Y32.850 E48.53174
G1 X32.850 Y-33.972 E50.89680
G1 X33.683 Y-34.214 E50.91851
G1 X-34.214 Y33.683 E53.32163
G1 X-34.456 Y34.516 E53.34334
G1 X34.516 Y-34.456 E55.78452
G1 X34.733 Y-34.519 E55.79016
G1 X34.733 Y-34.082 E55.80111
G1 X-34.082 Y34.733 E58.23668
G1 X-33.490 Y34.733 E58.25148
G1 X34.733 Y-33.490 E60.66612
G1 X34.733 Y-32.899 E60.68092
G1 X-32.899 Y34.733 E63.07464
G1 X-32.308 Y34.733 E63.08944
G1 X34.733 Y-32.308 E65.46224
G1 X34.733 Y-31.717 E65.47703
G1 X-31.717 Y34.733 E67.82891
G1 X-31.126 Y34.733 E67.84370
G1 X34.733 Y-31.126 E70.17465
G1 X34.733 Y-30.535 E70.18945
G1 X-30.535 Y34.733 E72.49947
G1 X-29.943 Y34.733 E72.51427
G1 X34.733 Y-29.943 E74.80337
G1 X34.733 Y-29.352 E74.81817
G1 X-29.352 Y34.733 E77.08634
G1 X-28.761 Y34.733 E77.10114
G1 X34.733 Y-28.761 E79.34839
G1 X34.733 Y-28.170 E79.36319
G1 X-28.170 Y34.733 E81.58952
G1 X-27.579 Y34.733 E81.60431
G1 X34.733 Y-27.579 E83.80972
G1 X34.733 Y-26.987 E83.82451
G1 X-26.987 Y34.733 E86.00899
G1 X-26.396 Y34.733 E86.02379
G1 X34.733 Y-26.396 E88.18735
G1 X34.733 Y-25.805 E88.20214
G1 X-25.805 Y34.733 E90.34477
G1 X-25.214 Y34.733 E90.35957
G1 X34.733 Y-25.214 E92.48128
G1 X34.733 Y-24.623 E92.49607
G1 X-24.623 Y34.733 E94.59686
G1 X-24.031 Y34.733 E94.61165
G1 X34.733 Y-24.031 E96.69151
G1 X34.733 Y-23.440 E96.70631
G1 X-23.440 Y34.733 E98.76525
G1 X-22.849 Y34.733 E98.78004
G1 X34.733 Y-22.849 E100.81805
G1 X34.733 Y-22.258 E100.83285
G1 X-22.258 Y34.733 E102.84994
G1 X-21.667 Y34.733 E102.86473
G1 X34.733 Y-21.667 E104.86090
G1 X34.733 Y-21.076 E104.87569
G1 X-21.076 Y34.733 E106.85093
G1 X-20.484 Y34.733 E106.86573
G1 X34.733 Y-20.484 E108.82004
G1 X34.733 Y-19.893 E108.83484
G1 X-19.893 Y34.733 E110.76823
G1 X-19.302 Y34.733 E110.78302
G1 X34.733 Y-19.302 E112.69549
G1 X34.733 Y-18.711 E112.71029
G1 X-18.711 Y34.733 E114.60183
G1 X-18.120 Y34.733 E114.61663
G1 X34.733 Y-18.120 E116.48724
G1 X34.733 Y-17.528 E116.50204
G1 X-17.528 Y34.733 E118.35174
G1 X-16.937 Y34.733 E118.36653
G1 X34.733 Y-16.937 E120.19530
G1 X34.733 Y-16.346 E120.21010
G1 X-16.346 Y34.733 E122.01794
G1 X-15.755 Y34.733 E122.03274
G1 X34.733 Y-15.755 E123.81966
G1 X34.733 Y-15.164 E123.83446
G1 X-15.164 Y34.733 E125.60045
G1 X-14.572 Y34.733 E125.61525
G1 X34.733 Y-14.572 E127.36032
G1 X34.733 Y-13.981 E127.37512
G1 X-13.981 Y34.733 E129.09927
G1 X-13.390 Y34.733 E129.11407
G1 X34.733 Y-13.390 E130.81729
G1 X34.733 Y-12.799 E130.83209
G1 X-12.799 Y34.733 E132.51439
G1 X-12.208 Y34.733 E132.52918
G1 X34.733 Y-12.208 E134.19056
G1 X34.733 Y-11.617 E134.20536
G1 X-11.617 Y34.733 E135.84581
G1 X-11.025 Y34.733 E135.86061
G1 X34.733 Y-11.025 E137.48013
G1 X34.733 Y-10.434 E137.49493
G1 X-10.434 Y34.733 E139.09353
G1 X-9.843 Y34.733 E139.10833
G1 X34.733 Y-9.843 E140.68601
G1 X34.733 Y-9.252 E140.70081
G1 X-9.252 Y34.733 E142.25756
G1 X-8.661 Y34.733 E142.27236
G1 X34.733 Y-8.661 E143.80819
G1 X34.733 Y-8.069 E143.82299
G1 X-8.069 Y34.733 E145.33790
G1 X-7.478 Y34.733 E145.35269
G1 X34.733 Y-7.478 E146.84668
G1 X34.733 Y-6.887 E146.86147
G1 X-6.887 Y34.733 E148.33453
G1 X-6.296 Y34.733 E148.34933
G1 X34.733 Y-6.296 E149.80146
G1 X34.733 Y-5.705 E149.81626
G1 X-5.705 Y34.733 E151.24747
G1 X-5.113 Y34.733 E151.26227
G1 X34.733 Y-5.113 E152.67255
G1 X34.733 Y-4.522 E152.68735
G1 X-4.522 Y34.733 E154.07671
G1 X-3.931 Y34.733 E154.09151
G1 X34.733 Y-3.931 E155.45995
G1 X34.733 Y-3.340 E155.47474
G1 X-3.340 Y34.733 E156.82226
G1 X-2.749 Y34.733 E156.83705
G1 X34.733 Y-2.749 E158.16365
G1 X34.733 Y-2.158 E158.17844
G1 X-2.158 Y34.733 E159.48411
G1 X-1.566 Y34.733 E159.49890
G1 X34.733 Y-1.566 E160.78365
G1 X34.733 Y-0.975 E160.79844
G1 X-0.975 Y34.733 E162.06226
G1 X-0.384 Y34.733 E162.07706
G1 X34.733 Y-0.384 E163.31995
G1 X34.733 Y0.207 E163.33475
G1 X0.207 Y34.733 E164.55672
G1 X0.798 Y34.733 E164.57151
G1 X34.733 Y0.798 E165.77256
G1 X34.733 Y1.390 E165.78735
G1 X1.390 Y34.733 E166.96748
G1 X1.981 Y34.733 E166.98227
G1 X34.733 Y1.981 E168.14147
G1 X34.733 Y2.572 E168.15627
G1 X2.572 Y34.733 E169.29454
G1 X3.163 Y34.733 E169.30933
G1 X34.733 Y3.163 E170.42668
G1 X34.733 Y3.754 E170.44148
G1 X3.754 Y34.733 E171.53791
G1 X4.346 Y34.733 E171.55270
G1 X34.733 Y4.346 E172.62820
G1 X34.733 Y4.937 E172.64300
G1 X4.937 Y34.733 E173.69758
G1 X5.528 Y34.733 E173.71237
G1 X34.733 Y5.528 E174.74602
G1 X34.733 Y6.119 E174.76082
G1 X6.119 Y34.733 E175.77355
G1 X6.710 Y34.733 E175.78834
G1 X34.733 Y6.710 E176.78015
G1 X34.733 Y7.301 E176.79494
G1 X7.301 Y34.733 E177.76583
G1 X7.893 Y34.733 E177.78062
G1 X34.733 Y7.893 E178.73058
G1 X34.733 Y8.484 E178.74537
G1 X8.484 Y34.733 E179.67441
G1 X9.075 Y34.733 E179.68920
G1 X34.733 Y9.075 E180.59731
G1 X34.733 Y9.666 E180.61211
G1 X9.666 Y34.733 E181.49929
G1 X10.257 Y34.733 E181.51408
G1 X34.733 Y10.257 E182.38034
G1 X34.733 Y10.849 E182.39514
G1 X10.849 Y34.733 E183.24048
G1 X11.440 Y34.733 E183.25527
G1 X34.733 Y11.440 E184.07968
G1 X34.733 Y12.031 E184.09448
G1 X12.031 Y34.733 E184.89797
G1 X12.622 Y34.733 E184.91276
G1 X34.733 Y12.622 E185.69533
G1 X34.733 Y13.213 E185.71012
G1 X13.213 Y34.733 E186.47176
G1 X13.805 Y34.733 E186.48656
G1 X34.733 Y13.805 E187.22727
G1 X34.733 Y14.396 E187.24207
G1 X14.396 Y34.733 E187.96186
G1 X14.987 Y34.733 E187.97665
G1 X34.733 Y14.987 E188.67552
G1 X34.733 Y15.578 E188.69032
G1 X15.578 Y34.733 E189.36826
G1 X16.169 Y34.733 E189.38305
G1 X34.733 Y16.169 E190.04007
G1 X34.733 Y16.761 E190.05487
G1 X16.760 Y34.733 E190.69096
G1 X17.352 Y34.733 E190.70576
G1 X34.733 Y17.352 E191.32093
G1 X34.733 Y17.943 E191.33572
G1 X17.943 Y34.733 E191.92997
G1 X18.534 Y34.733 E191.94477
G1 X34.733 Y18.534 E192.51809
G1 X34.733 Y19.125 E192.53288
G1 X19.125 Y34.733 E193.08528
G1 X19.716 Y34.733 E193.10008
G1 X34.733 Y19.716 E193.63155
G1 X34.733 Y20.308 E193.64635
G1 X20.308 Y34.733 E194.15690
G1 X20.899 Y34.733 E194.17169
G1 X34.733 Y20.899 E194.66132
G1 X34.733 Y21.490 E194.67611
G1 X21.490 Y34.733 E195.14481
G1 X22.081 Y34.733 E195.15961
G1 X34.733 Y22.081 E195.60739
G1 X34.733 Y22.672 E195.62218
G1 X22.672 Y34.733 E196.04904
G1 X23.264 Y34.733 E196.06383
G1 X34.733 Y23.264 E196.46976
G1 X34.733 Y23.855 E196.48456
G1 X23.855 Y34.733 E196.86956
G1 X24.446 Y34.733 E196.88436
G1 X34.733 Y24.446 E197.24844
G1 X34.733 Y25.037 E197.26323
G1 X25.037 Y34.733 E197.60639
G1 X25.628 Y34.733 E197.62118
G1 X34.733 Y25.628 E197.94342
G1 X34.733 Y26.220 E197.95821
G1 X26.220 Y34.733 E198.25952
G1 X26.811 Y34.733 E198.27432
G1 X34.733 Y26.811 E198.55470
G1 X34.733 Y27.402 E198.56950
G1 X27.402 Y34.733 E198.82895
G1 X27.993 Y34.733 E198.84375
G1 X34.733 Y27.993 E199.08229
G1 X34.733 Y28.584 E199.09708
G1 X28.584 Y34.733 E199.31469
G1 X29.175 Y34.733 E199.32949
G1 X34.733 Y29.175 E199.52618
G1 X34.733 Y29.767 E199.54097
G1 X29.767 Y34.733 E199.71674
G1 X30.358 Y34.733 E199.73153
G1 X34.733 Y30.358 E199.88637
G1 X34.733 Y30.949 E199.90117
G1 X30.949 Y34.733 E200.03508
G1 X31.540 Y34.733 E200.04988
G1 X34.733 Y31.540 E200.16287
G1 X34.733 Y32.131 E200.17766
G1 X32.131 Y34.733 E200.26973
G1 X32.723 Y34.733 E200.28452
G1 X34.733 Y32.723 E200.35567
G1 X34.733 Y33.314 E200.37046
G1 X33.314 Y34.733 E200.42068
G1 X33.905 Y34.733 E200.43548
G1 X34.733 Y33.905 E200.46477
G1 X34.733 Y34.496 E200.47957
G1 X34.496 Y34.733 E200.48794
M104 S185 ; set temperature
M140 S65 ; set bed temperature
G1 Z0.550 F7800.000
G1 X35.007 Y-34.924 F7800.000
G1 F2880
G1 X35.007 Y35.007 E205.11181
